<?xml version="1.0" encoding="UTF-8"?>
<map version="1.10" tiledversion="1.12.1" orientation="orthogonal" renderorder="right-down" width="30" height="20" tilewidth="16" tileheight="16" infinite="1" nextlayerid="4" nextobjectid="2">
 <tileset firstgid="1" source="../Atlas.tsx"/>
 <layer id="2" name="Main" width="30" height="20">
  <data encoding="csv">
   <chunk x="-16" y="0" width="16" height="16">
0,0,0,0,0,423,424,424,424,424,424,424,424,424,424,424,
0,0,0,0,0,443,444,444,444,444,444,444,444,444,444,444,
0,0,0,0,0,443,444,444,444,444,444,444,444,444,444,444,
0,0,0,0,0,443,444,444,444,444,444,444,444,444,444,444,
0,0,0,0,0,443,444,444,444,444,444,444,444,444,444,444,
0,0,0,0,0,443,444,444,444,444,444,444,444,444,444,444,
0,0,0,0,0,443,444,444,444,444,444,444,444,444,444,444,
0,0,0,0,0,443,444,444,444,444,444,444,444,444,444,444,
0,0,0,0,0,443,444,444,444,444,444,444,444,444,444,444,
0,0,0,0,0,443,444,444,444,444,444,444,444,444,444,444,
0,0,0,0,0,443,444,444,444,444,444,444,444,444,444,444,
0,0,0,0,0,443,444,444,444,444,444,444,444,444,444,444,
0,0,0,0,0,443,444,444,444,444,444,444,444,444,444,444,
0,0,0,0,0,443,444,444,444,444,444,444,444,444,444,444,
0,0,0,0,0,443,444,444,444,444,444,444,444,444,444,444,
0,0,0,0,0,463,464,464,464,464,464,464,464,464,464,464
</chunk>
   <chunk x="0" y="0" width="16" height="16">
424,424,424,424,424,424,424,425,0,0,0,0,0,0,0,0,
444,444,444,444,444,444,444,445,0,0,0,0,0,0,0,0,
444,444,444,444,444,444,444,445,0,0,0,0,0,0,0,0,
444,444,444,444,444,444,444,445,0,0,0,0,0,0,0,0,
444,444,444,444,444,444,444,445,0,0,0,0,0,0,0,0,
444,444,444,444,444,444,444,445,0,0,0,0,0,0,0,0,
444,444,444,444,444,444,444,445,0,0,0,0,0,0,0,0,
444,444,444,444,444,444,444,445,0,0,0,0,0,0,0,0,
444,444,444,444,444,444,444,445,0,0,0,0,0,0,0,0,
444,444,444,444,444,444,444,445,0,0,0,0,0,0,0,0,
444,444,444,444,444,444,444,445,0,0,0,0,0,0,0,0,
444,444,444,444,444,444,444,445,0,0,0,0,0,0,0,0,
444,444,444,444,444,444,444,445,0,0,0,0,0,0,0,0,
444,444,444,444,444,444,444,445,0,0,0,0,0,0,0,0,
444,444,444,444,444,444,444,445,0,0,0,0,0,0,0,0,
464,464,464,464,464,464,464,465,0,0,0,0,0,0,0,0
</chunk>
  </data>
 </layer>
 <objectgroup id="3" name="Collision">
  <properties>
   <property name="collision" type="bool" value="true"/>
  </properties>
  <object id="1" x="-176" y="0" width="304" height="256"/>
 </objectgroup>
</map>
