<?xml version="1.0" encoding="UTF-8"?>
<map version="1.10" tiledversion="1.12.1" orientation="orthogonal" renderorder="right-down" width="30" height="20" tilewidth="16" tileheight="16" infinite="1" nextlayerid="4" nextobjectid="9">
 <tileset firstgid="1" source="../Atlas.tsx"/>
 <layer id="1" name="Main" width="30" height="20">
  <data encoding="csv">
   <chunk x="-32" y="-32" width="16" height="16">
0,0,0,0,0,0,0,0,0,0,0,0,0,0,0,0,
0,0,0,0,0,0,0,0,0,0,0,0,0,0,0,0,
0,0,0,0,0,0,0,0,0,0,0,0,0,0,0,0,
0,0,0,0,0,0,0,0,0,0,0,0,0,0,0,0,
0,0,0,0,0,0,0,0,0,0,0,0,0,0,0,0,
0,0,0,0,0,0,0,0,0,0,0,0,0,0,0,0,
0,0,0,0,0,0,0,0,0,0,0,0,0,0,0,0,
0,0,0,0,0,0,0,0,0,0,0,0,0,0,0,0,
0,0,0,0,0,0,0,0,0,0,0,0,0,0,0,0,
0,0,0,0,0,0,0,0,0,0,0,0,0,0,0,0,
0,0,0,0,0,0,0,0,0,0,0,0,0,0,0,0,
0,352,352,352,352,352,352,352,352,352,352,352,352,352,352,352,
0,352,352,352,352,352,352,352,352,352,352,352,352,352,352,352,
0,352,352,352,352,352,352,352,352,352,352,352,352,352,352,352,
0,352,352,352,352,352,352,352,352,352,352,352,352,352,352,352,
0,352,352,352,352,352,352,352,352,352,352,352,352,352,352,352
</chunk>
   <chunk x="-16" y="-32" width="16" height="16">
0,0,0,0,0,0,0,0,0,0,0,0,0,0,0,0,
0,0,0,0,0,0,0,0,0,0,0,0,0,0,0,0,
0,0,0,0,0,0,0,0,0,0,0,0,0,0,0,0,
0,0,0,0,0,0,0,0,0,0,0,0,0,0,0,0,
0,0,0,0,0,0,0,0,0,0,0,0,0,0,0,0,
0,0,0,0,0,0,0,0,0,0,0,0,0,0,0,0,
0,0,0,0,0,0,0,0,0,0,0,0,0,0,0,0,
0,0,0,0,0,0,0,0,0,0,0,0,0,0,0,0,
0,0,0,0,0,0,0,0,0,0,0,0,0,0,0,0,
0,0,0,0,0,0,0,0,0,0,0,0,0,0,0,0,
0,0,0,0,0,0,0,0,0,0,0,0,0,0,0,0,
352,352,352,352,352,352,352,352,352,352,352,352,352,352,352,352,
352,352,352,352,352,352,352,352,352,352,352,352,352,352,352,352,
352,352,352,352,352,352,352,352,352,352,352,352,352,352,352,352,
352,352,352,352,352,352,352,352,352,352,352,352,352,352,352,352,
352,352,352,352,352,352,352,352,352,352,352,352,352,352,352,352
</chunk>
   <chunk x="0" y="-32" width="16" height="16">
0,0,0,0,0,0,0,0,0,0,0,0,0,0,0,0,
0,0,0,0,0,0,0,0,0,0,0,0,0,0,0,0,
0,0,0,0,0,0,0,0,0,0,0,0,0,0,0,0,
0,0,0,0,0,0,0,0,0,0,0,0,0,0,0,0,
0,0,0,0,0,0,0,0,0,0,0,0,0,0,0,0,
0,0,0,0,0,0,0,0,0,0,0,0,0,0,0,0,
0,0,0,0,0,0,0,0,0,0,0,0,0,0,0,0,
0,0,0,0,0,0,0,0,0,0,0,0,0,0,0,0,
0,0,0,0,0,0,0,0,0,0,0,0,0,0,0,0,
0,0,0,0,0,0,0,0,0,0,0,0,0,0,0,0,
0,0,0,0,0,0,0,0,0,0,0,0,0,0,0,0,
352,352,352,352,352,352,352,352,352,352,352,352,352,352,352,352,
352,352,352,352,352,352,352,352,352,352,352,352,352,352,352,352,
352,352,352,352,352,352,352,352,352,352,352,352,352,352,352,352,
352,352,352,352,352,352,352,352,352,352,352,352,352,352,352,352,
352,352,352,352,352,352,352,352,352,352,352,352,352,352,352,352
</chunk>
   <chunk x="16" y="-32" width="16" height="16">
0,0,0,0,0,0,0,0,0,0,0,0,0,0,0,0,
0,0,0,0,0,0,0,0,0,0,0,0,0,0,0,0,
0,0,0,0,0,0,0,0,0,0,0,0,0,0,0,0,
0,0,0,0,0,0,0,0,0,0,0,0,0,0,0,0,
0,0,0,0,0,0,0,0,0,0,0,0,0,0,0,0,
0,0,0,0,0,0,0,0,0,0,0,0,0,0,0,0,
0,0,0,0,0,0,0,0,0,0,0,0,0,0,0,0,
0,0,0,0,0,0,0,0,0,0,0,0,0,0,0,0,
0,0,0,0,0,0,0,0,0,0,0,0,0,0,0,0,
0,0,0,0,0,0,0,0,0,0,0,0,0,0,0,0,
0,0,0,0,0,0,0,0,0,0,0,0,0,0,0,0,
352,352,352,352,352,352,352,352,352,352,352,352,352,352,352,352,
352,352,352,352,352,352,352,352,352,352,352,352,352,352,352,352,
352,352,352,352,352,352,352,352,352,352,352,352,352,352,352,352,
352,352,352,352,352,352,352,352,352,352,352,352,352,352,352,352,
352,352,352,352,352,352,352,352,352,352,352,352,352,352,352,352
</chunk>
   <chunk x="32" y="-32" width="16" height="16">
0,0,0,0,0,0,0,0,0,0,0,0,0,0,0,0,
0,0,0,0,0,0,0,0,0,0,0,0,0,0,0,0,
0,0,0,0,0,0,0,0,0,0,0,0,0,0,0,0,
0,0,0,0,0,0,0,0,0,0,0,0,0,0,0,0,
0,0,0,0,0,0,0,0,0,0,0,0,0,0,0,0,
0,0,0,0,0,0,0,0,0,0,0,0,0,0,0,0,
0,0,0,0,0,0,0,0,0,0,0,0,0,0,0,0,
0,0,0,0,0,0,0,0,0,0,0,0,0,0,0,0,
0,0,0,0,0,0,0,0,0,0,0,0,0,0,0,0,
0,0,0,0,0,0,0,0,0,0,0,0,0,0,0,0,
0,0,0,0,0,0,0,0,0,0,0,0,0,0,0,0,
352,352,352,352,352,352,352,352,352,352,0,0,0,0,0,0,
352,352,352,352,352,352,352,352,352,352,0,0,0,0,0,0,
352,352,352,352,352,352,352,352,352,352,0,0,0,0,0,0,
352,352,352,352,352,352,352,352,352,352,0,0,0,0,0,0,
352,352,352,352,352,352,352,352,352,352,0,0,0,0,0,0
</chunk>
   <chunk x="-32" y="-16" width="16" height="16">
0,352,352,352,352,352,352,352,352,352,352,352,352,352,352,352,
0,352,352,352,352,352,352,352,352,352,352,352,352,352,352,352,
0,352,352,352,352,352,352,352,352,352,352,352,352,352,352,352,
0,352,352,352,352,352,352,352,352,352,352,352,352,352,352,352,
0,352,352,352,352,352,352,352,352,352,352,352,352,352,352,352,
0,352,352,352,352,352,352,352,352,352,352,352,352,352,352,352,
0,352,352,352,352,352,352,352,352,352,352,352,352,352,352,352,
0,352,352,352,352,352,352,352,352,352,352,352,352,352,352,352,
0,352,352,352,352,352,352,352,352,352,352,352,352,352,352,352,
0,352,352,352,352,352,352,352,352,352,352,352,352,352,352,352,
0,352,352,352,352,352,352,352,352,352,352,352,352,352,352,352,
0,352,352,352,352,352,352,352,352,352,352,352,352,352,352,352,
0,352,352,352,352,352,352,352,352,352,352,352,352,352,352,352,
0,352,352,352,352,352,352,352,352,352,352,352,352,352,352,352,
0,352,352,352,352,352,352,352,352,352,352,352,352,352,352,352,
0,352,352,352,352,352,352,352,352,352,352,352,352,352,352,352
</chunk>
   <chunk x="-16" y="-16" width="16" height="16">
352,352,352,352,352,352,352,352,352,352,352,352,352,352,352,352,
352,352,352,352,352,352,352,352,352,352,352,352,352,352,352,352,
352,352,352,352,352,352,352,352,352,352,352,352,352,352,352,352,
352,352,352,352,352,352,352,352,352,352,352,352,352,352,352,352,
352,352,352,352,352,352,352,352,352,352,352,352,352,352,352,352,
352,352,352,352,352,354,376,376,376,376,376,376,376,376,376,376,
352,352,354,376,376,377,0,0,0,0,0,0,0,0,0,0,
352,352,353,0,0,0,0,0,0,0,0,0,0,0,0,0,
352,352,353,0,0,0,0,0,0,0,0,0,0,0,0,0,
352,352,353,0,0,0,0,0,0,0,0,0,0,0,0,0,
352,352,353,0,0,0,0,0,0,0,0,0,0,0,0,0,
352,352,353,0,0,0,0,0,0,0,0,0,0,0,0,0,
352,352,378,328,328,329,0,0,0,0,0,0,0,0,0,0,
352,352,352,352,352,353,0,0,0,0,0,0,0,0,0,0,
352,352,352,352,352,353,0,0,0,0,0,0,0,0,0,0,
352,352,352,352,352,353,0,0,0,0,0,0,0,0,0,0
</chunk>
   <chunk x="0" y="-16" width="16" height="16">
352,352,352,352,352,352,352,352,352,352,352,352,352,352,352,352,
352,352,352,352,352,352,352,352,352,352,352,352,352,352,352,352,
352,352,352,352,352,352,352,352,352,352,352,352,352,352,352,352,
352,352,352,352,352,352,352,352,352,352,352,352,352,352,352,352,
352,352,352,352,352,352,352,352,352,352,352,352,352,352,352,352,
376,376,376,376,376,376,355,352,352,352,352,352,352,352,352,352,
0,0,0,0,0,0,351,352,352,352,352,352,352,352,352,352,
0,0,0,0,0,0,351,352,352,352,352,352,352,352,352,352,
0,0,0,0,0,0,351,352,352,352,352,352,352,352,352,352,
0,0,0,0,0,0,351,352,352,352,352,352,352,352,352,352,
0,0,0,0,0,0,351,352,352,352,352,352,352,352,352,352,
0,0,0,0,0,0,351,352,352,352,352,352,352,352,352,352,
0,0,0,0,0,0,351,352,352,352,352,352,352,352,352,352,
0,0,0,0,0,0,351,352,352,352,352,352,352,352,352,352,
0,0,0,0,0,0,351,352,352,352,352,352,352,352,352,352,
0,0,0,0,0,0,351,352,352,352,352,352,352,352,352,352
</chunk>
   <chunk x="16" y="-16" width="16" height="16">
352,352,352,352,352,352,352,352,352,352,352,352,352,352,352,352,
352,352,352,352,352,352,352,352,352,352,352,352,352,352,352,352,
352,352,352,352,352,352,352,352,352,352,352,352,352,352,352,352,
352,352,352,352,352,352,352,352,352,352,352,352,352,352,352,352,
352,352,352,352,352,352,352,352,352,352,352,352,352,352,352,352,
352,352,352,352,352,352,352,352,352,352,352,352,352,352,352,352,
352,352,352,352,352,352,352,352,352,352,352,352,352,352,352,352,
352,352,352,352,352,352,352,352,352,352,352,352,352,352,352,352,
352,352,352,352,352,352,352,352,352,352,352,352,352,352,352,352,
352,352,352,352,352,352,352,352,352,352,352,352,352,352,352,352,
352,352,352,352,352,352,352,352,352,352,352,352,352,352,352,352,
352,352,352,352,352,352,352,352,352,352,352,352,352,352,352,352,
352,352,352,352,352,352,352,352,352,352,352,352,352,352,352,352,
352,352,352,352,352,352,352,352,352,352,352,352,352,352,352,352,
352,352,352,352,352,352,352,352,352,352,352,352,352,352,352,352,
352,352,352,352,352,352,352,352,352,352,352,352,352,352,352,352
</chunk>
   <chunk x="32" y="-16" width="16" height="16">
352,352,352,352,352,352,352,352,352,352,0,0,0,0,0,0,
352,352,352,352,352,352,352,352,352,352,0,0,0,0,0,0,
352,352,352,352,352,352,352,352,352,352,0,0,0,0,0,0,
352,352,352,352,352,352,352,352,352,352,0,0,0,0,0,0,
352,352,352,352,352,352,352,352,352,352,0,0,0,0,0,0,
352,352,352,352,352,352,352,352,352,352,0,0,0,0,0,0,
352,352,352,352,352,352,352,352,352,352,0,0,0,0,0,0,
352,352,352,352,352,352,352,352,352,352,0,0,0,0,0,0,
352,352,352,352,352,352,352,352,352,352,0,0,0,0,0,0,
352,352,352,352,352,352,352,352,352,352,0,0,0,0,0,0,
352,352,352,352,352,352,352,352,352,352,0,0,0,0,0,0,
352,352,352,352,352,352,352,352,352,352,0,0,0,0,0,0,
352,352,352,352,352,352,352,352,352,352,0,0,0,0,0,0,
352,352,352,352,352,352,352,352,352,352,0,0,0,0,0,0,
352,352,352,352,352,352,352,352,352,352,0,0,0,0,0,0,
352,352,352,352,352,352,352,352,352,352,0,0,0,0,0,0
</chunk>
   <chunk x="-32" y="0" width="16" height="16">
0,352,352,352,352,352,352,352,352,352,352,352,352,352,352,352,
0,352,352,352,352,352,352,352,352,352,352,352,352,352,352,352,
0,352,352,352,352,352,352,352,352,352,352,352,352,352,352,352,
0,352,352,352,352,352,352,352,352,352,352,352,352,352,352,352,
0,352,352,352,352,352,352,352,352,352,352,352,352,352,352,352,
0,352,352,352,352,352,352,352,352,352,352,352,352,352,352,352,
0,352,352,352,352,352,352,352,352,352,352,352,352,352,352,352,
0,352,352,352,352,352,352,352,352,352,352,352,352,352,352,352,
0,352,352,352,352,352,352,352,352,352,352,352,352,352,352,352,
0,352,352,352,352,352,352,352,352,352,352,352,352,352,352,352,
0,352,352,352,352,352,352,352,352,352,352,352,352,352,352,352,
0,0,0,0,0,0,0,0,0,0,0,0,0,0,0,0,
0,0,0,0,0,0,0,0,0,0,0,0,0,0,0,0,
0,0,0,0,0,0,0,0,0,0,0,0,0,0,0,0,
0,0,0,0,0,0,0,0,0,0,0,0,0,0,0,0,
0,0,0,0,0,0,0,0,0,0,0,0,0,0,0,0
</chunk>
   <chunk x="-16" y="0" width="16" height="16">
352,352,352,352,352,378,328,328,328,328,328,328,328,328,328,328,
352,352,352,352,352,352,352,352,352,352,352,352,352,352,352,352,
352,352,352,352,352,352,352,352,352,352,352,352,352,352,352,352,
352,352,352,352,352,352,352,352,352,352,352,352,352,352,352,352,
352,352,352,352,352,352,352,352,352,352,352,352,352,352,352,352,
352,352,352,352,352,352,352,352,352,352,352,352,352,352,352,352,
352,352,352,352,352,352,352,352,352,352,352,352,352,352,352,352,
352,352,352,352,352,352,352,352,352,352,352,352,352,352,352,352,
352,352,352,352,352,352,352,352,352,352,352,352,352,352,352,352,
352,352,352,352,352,352,352,352,352,352,352,352,352,352,352,352,
352,352,352,352,352,352,352,352,352,352,352,352,352,352,352,352,
0,0,0,0,0,0,0,0,0,0,0,0,0,0,0,0,
0,0,0,0,0,0,0,0,0,0,0,0,0,0,0,0,
0,0,0,0,0,0,0,0,0,0,0,0,0,0,0,0,
0,0,0,0,0,0,0,0,0,0,0,0,0,0,0,0,
0,0,0,0,0,0,0,0,0,0,0,0,0,0,0,0
</chunk>
   <chunk x="0" y="0" width="16" height="16">
328,328,328,328,328,328,379,352,352,352,352,352,352,352,352,352,
352,352,352,352,352,352,352,352,352,352,352,352,352,352,352,352,
352,352,352,352,352,352,352,352,352,352,352,352,352,352,352,352,
352,352,352,352,352,352,352,352,352,352,352,352,352,352,352,352,
352,352,352,352,352,352,352,352,352,352,352,352,352,352,352,352,
352,352,352,352,352,352,352,352,352,352,352,352,352,352,352,352,
352,352,352,352,352,352,352,352,352,352,352,352,352,352,352,352,
352,352,352,352,352,352,352,352,352,352,352,352,352,352,352,352,
352,352,352,352,352,352,352,352,352,352,352,352,352,352,352,352,
352,352,352,352,352,352,352,352,352,352,352,352,352,352,352,352,
352,352,352,352,352,352,352,352,352,352,352,352,352,352,352,352,
0,0,0,0,0,0,0,0,0,0,0,0,0,0,0,0,
0,0,0,0,0,0,0,0,0,0,0,0,0,0,0,0,
0,0,0,0,0,0,0,0,0,0,0,0,0,0,0,0,
0,0,0,0,0,0,0,0,0,0,0,0,0,0,0,0,
0,0,0,0,0,0,0,0,0,0,0,0,0,0,0,0
</chunk>
   <chunk x="16" y="0" width="16" height="16">
352,352,352,352,352,352,352,352,352,352,352,352,352,352,352,352,
352,352,352,352,352,352,352,352,352,352,352,352,352,352,352,352,
352,352,352,352,352,352,352,352,352,352,352,352,352,352,352,352,
352,352,352,352,352,352,352,352,352,352,352,352,352,352,352,352,
352,352,352,352,352,352,352,352,352,352,352,352,352,352,352,352,
352,352,352,352,352,352,352,352,352,352,352,352,352,352,352,352,
352,352,352,352,352,352,352,352,352,352,352,352,352,352,352,352,
352,352,352,352,352,352,352,352,352,352,352,352,352,352,352,352,
352,352,352,352,352,352,352,352,352,352,352,352,352,352,352,352,
352,352,352,352,352,352,352,352,352,352,352,352,352,352,352,352,
352,352,352,352,352,352,352,352,352,352,352,352,352,352,352,352,
0,0,0,0,0,0,0,0,0,0,0,0,0,0,0,0,
0,0,0,0,0,0,0,0,0,0,0,0,0,0,0,0,
0,0,0,0,0,0,0,0,0,0,0,0,0,0,0,0,
0,0,0,0,0,0,0,0,0,0,0,0,0,0,0,0,
0,0,0,0,0,0,0,0,0,0,0,0,0,0,0,0
</chunk>
   <chunk x="32" y="0" width="16" height="16">
352,352,352,352,352,352,352,352,352,352,0,0,0,0,0,0,
352,352,352,352,352,352,352,352,352,352,0,0,0,0,0,0,
352,352,352,352,352,352,352,352,352,352,0,0,0,0,0,0,
352,352,352,352,352,352,352,352,352,352,0,0,0,0,0,0,
352,352,352,352,352,352,352,352,352,352,0,0,0,0,0,0,
352,352,352,352,352,352,352,352,352,352,0,0,0,0,0,0,
352,352,352,352,352,352,352,352,352,352,0,0,0,0,0,0,
352,352,352,352,352,352,352,352,352,352,0,0,0,0,0,0,
352,352,352,352,352,352,352,352,352,352,0,0,0,0,0,0,
352,352,352,352,352,352,352,352,352,352,0,0,0,0,0,0,
352,352,352,352,352,352,352,352,352,352,0,0,0,0,0,0,
0,0,0,0,0,0,0,0,0,0,0,0,0,0,0,0,
0,0,0,0,0,0,0,0,0,0,0,0,0,0,0,0,
0,0,0,0,0,0,0,0,0,0,0,0,0,0,0,0,
0,0,0,0,0,0,0,0,0,0,0,0,0,0,0,0,
0,0,0,0,0,0,0,0,0,0,0,0,0,0,0,0
</chunk>
  </data>
 </layer>
 <objectgroup id="2" name="Collision">
  <properties>
   <property name="collision" type="bool" value="true"/>
  </properties>
  <object id="1" x="-224" y="-160" width="64" height="16"/>
  <object id="2" x="-176" y="-176" width="288" height="16"/>
  <object id="3" x="96" y="-160" width="16" height="160"/>
  <object id="4" x="-176" y="0" width="288" height="16"/>
  <object id="5" x="-176" y="-64" width="16" height="64"/>
  <object id="6" x="-224" y="-144" width="16" height="96"/>
  <object id="7" x="-208" y="-64" width="32" height="16">
   <properties>
    <property name="collision" type="bool" value="true"/>
   </properties>
  </object>
 </objectgroup>
 <objectgroup id="3" name="Node">
  <object id="8" name="player" x="-176" y="-80">
   <point/>
  </object>
 </objectgroup>
</map>
