<?xml version="1.0" encoding="UTF-8"?>
<map version="1.10" tiledversion="1.12.1" orientation="orthogonal" renderorder="right-down" width="30" height="20" tilewidth="16" tileheight="16" infinite="1" nextlayerid="10" nextobjectid="130">
 <tileset firstgid="1" source="../Atlas.tsx"/>
 <layer id="1" name="Main" width="30" height="20">
  <properties>
   <property name="layer" type="int" value="1"/>
  </properties>
  <data encoding="csv">
   <chunk x="-16" y="-32" width="16" height="16">
0,0,0,0,0,0,0,0,0,0,0,0,0,0,0,0,
0,0,0,0,0,0,0,0,0,0,0,0,0,0,0,0,
0,0,0,0,0,0,1064,1064,1064,1064,1064,1064,1064,1064,1064,1064,
0,0,0,0,0,0,1064,1064,1064,1064,1064,1064,1064,1064,1064,1064,
0,0,0,0,0,0,1064,1064,1064,1064,1064,1064,1064,1064,1064,1064,
0,0,0,0,0,0,1064,1064,1064,1064,1064,1064,1064,1064,1064,1064,
0,0,0,0,0,0,1064,1064,1064,1064,1064,1064,1064,1064,1064,1064,
0,0,0,0,0,0,1064,1064,1064,1064,1064,1064,1064,1064,1064,1064,
0,0,0,0,0,0,1064,1064,1064,1064,1064,1064,1064,1064,1064,1064,
0,0,0,0,0,0,1064,1064,1064,1064,1064,1064,1064,1064,1064,1064,
0,0,0,0,0,0,1064,1064,1064,1064,1064,1064,1064,1064,1064,1064,
0,0,0,0,0,0,1064,1064,1064,1064,1064,1064,1064,1064,1064,1064,
0,0,0,0,0,0,1064,1064,1064,1064,1064,1064,1064,1064,1064,1064,
0,0,0,0,0,0,1064,1064,1064,1064,1064,1064,1064,1064,1064,1064,
0,0,0,0,0,0,1064,1064,1064,1064,1064,1064,1064,1064,1064,1064,
0,0,0,0,0,0,1064,1064,1064,1064,1064,1064,1064,1064,1064,1064
</chunk>
   <chunk x="0" y="-32" width="16" height="16">
0,0,0,0,0,0,0,0,0,0,0,0,0,0,0,0,
0,0,0,0,0,0,0,0,0,0,0,0,0,0,0,0,
1064,1064,1064,1064,1064,1064,1064,1064,1064,1064,1064,1064,1064,1064,1064,1064,
1064,1064,1064,1064,1064,1064,1064,1064,1064,1064,1064,1064,1064,1064,1064,1064,
1064,1064,1064,1064,1064,1064,1064,1064,1064,1064,1064,1064,1064,1064,1064,1064,
1064,1064,1064,1064,1064,1064,1064,1064,1064,1064,1064,1064,1064,1064,1064,1064,
1064,1064,1064,1064,1064,1064,1064,1064,1064,1064,1064,1064,1064,1064,1064,1064,
1064,1064,1064,1064,1064,1064,1064,1064,1064,1064,1064,1064,1064,1064,1064,1064,
1064,1064,1064,1064,1064,1064,1064,1064,1064,1064,1064,1064,1064,1064,1064,1064,
1064,1064,1064,1064,1064,1064,1064,1064,1064,1064,1064,1064,1064,1064,1064,1064,
1064,1064,1064,1064,1064,1064,1064,1064,1064,1064,1064,1064,1064,1064,1064,1064,
1064,1064,1064,1064,1064,1064,1064,1064,1064,1064,1064,1064,1064,1064,1064,1064,
1064,1064,1064,1064,1064,1064,1064,1064,1064,1064,1064,1064,1064,1064,1064,1064,
1064,1064,1064,1064,1064,1064,1064,1064,1064,1064,1064,1064,1064,1064,1064,1064,
1064,1064,1064,1064,1064,1064,1064,1064,1064,1064,1064,1064,1064,1064,1064,1064,
1064,1064,1064,1064,1064,1064,1064,1064,1064,1064,1064,1064,1064,1064,1064,1064
</chunk>
   <chunk x="16" y="-32" width="16" height="16">
0,0,0,0,0,0,0,0,0,0,0,0,0,0,0,0,
0,0,0,0,0,0,0,0,0,0,0,0,0,0,0,0,
1064,1064,1064,1064,1064,1064,1064,1064,1064,1064,1064,1064,1064,1064,1064,1064,
1064,1064,1064,1064,1064,1064,1064,1064,1064,1064,1064,1064,1064,1064,1064,1064,
1064,1064,1064,1064,1064,1064,1064,1064,1064,1064,1064,1064,1064,1064,1064,1064,
1064,1064,1064,1064,1064,1064,1064,1064,1064,1064,1064,1064,1064,1064,1064,1064,
1064,1064,1064,1064,1064,1064,1064,1064,1064,1064,1064,1064,1064,1064,1064,1064,
1064,1064,1064,1064,1064,1064,1064,1064,1064,1064,1064,1064,1064,1064,1064,1064,
1064,1064,1064,1064,1064,1064,1064,1064,1064,1064,1064,1064,1064,1064,1064,1064,
1064,1064,1064,1064,1064,1064,1064,1064,1064,1064,1064,1064,1064,1064,1064,1064,
1064,1064,1064,1064,1064,1064,1064,1064,1064,1064,1064,1064,1064,1064,1064,1064,
1064,1064,1064,1064,1064,1064,1064,1064,1064,1064,1064,1064,1064,1064,1064,1064,
1064,1064,1064,1064,1064,1064,1064,1064,1064,1064,1064,1064,1064,1064,1064,1064,
1064,1064,1064,1064,1064,1064,1064,1064,1064,1064,1064,1064,1064,1064,1064,1064,
1064,1064,1064,1064,1064,1064,1064,1064,1064,1064,1064,1064,1064,1064,1064,1064,
1064,1064,1064,1064,1064,1064,1064,1064,1064,1064,1064,1064,1064,1064,1064,1064
</chunk>
   <chunk x="32" y="-32" width="16" height="16">
0,0,0,0,0,0,0,0,0,0,0,0,0,0,0,0,
0,0,0,0,0,0,0,0,0,0,0,0,0,0,0,0,
1064,1064,1064,1064,1064,1064,1064,1064,1064,1064,1064,1064,1064,1064,1064,1064,
1064,1064,1064,1064,1064,1064,1064,1064,1064,1064,1064,1064,1064,1064,1064,1064,
1064,1064,1064,1064,1064,1064,1064,1064,1064,1064,1064,1064,1064,1064,1064,1064,
1064,1064,1064,1064,1064,1064,1064,1064,1064,1064,1064,1064,1064,1064,1064,1064,
1064,1064,1064,1064,1064,1064,1064,1064,1064,1064,1064,1064,1064,1064,1064,1064,
1064,1064,1064,1064,1064,1064,1064,1064,1064,1064,1064,1064,1064,1064,1064,1064,
1064,1064,1064,1064,1064,1064,1064,1064,1064,1064,1064,1064,1064,1064,1064,1064,
1064,1064,1064,1064,1064,1064,1064,1064,1064,1064,1064,1064,1064,1064,1064,1064,
1064,1064,1064,1064,1064,1064,1064,1064,1064,1064,1064,1064,1064,1064,1064,1064,
1064,1064,1064,1064,1064,1064,1064,1064,1064,1064,1064,1064,1064,1064,1064,1064,
1064,1064,1064,1064,1064,1064,1064,1064,1064,1064,1064,1064,1064,1064,1064,1064,
1064,1064,1064,1064,1064,1064,1064,1064,1064,1064,1064,1064,1064,1064,1064,1064,
1064,1064,1064,1064,1064,1064,1064,1064,1064,1064,1064,1064,1064,1064,1064,1064,
1064,1064,1064,1064,1064,1064,1064,1064,1064,1064,1064,1064,1064,1064,1064,1064
</chunk>
   <chunk x="48" y="-32" width="16" height="16">
0,0,0,0,0,0,0,0,0,0,0,0,0,0,0,0,
0,0,0,0,0,0,0,0,0,0,0,0,0,0,0,0,
1064,1064,1064,1064,1064,1064,1064,1064,1064,1064,1064,1064,0,0,0,0,
1064,1064,1064,1064,1064,1064,1064,1064,1064,1064,1064,1064,0,0,0,0,
1064,1064,1064,1064,1064,1064,1064,1064,1064,1064,1064,1064,0,0,0,0,
1064,1064,1064,1064,1064,1064,1064,1064,1064,1064,1064,1064,0,0,0,0,
1064,1064,1064,1064,1064,1064,1064,1064,1064,1064,1064,1064,0,0,0,0,
1064,1064,1064,1064,1064,1064,1064,1064,1064,1064,1064,1064,0,0,0,0,
1064,1064,1064,1064,1064,1064,1064,1064,1064,1064,1064,1064,0,0,0,0,
1064,1064,1064,1064,1064,1064,1064,1064,1064,1064,1064,1064,0,0,0,0,
1064,1064,1064,1064,1064,1064,1064,1064,1064,1064,1064,1064,0,0,0,0,
1064,1064,1064,1064,1064,1064,1064,1064,1064,1064,1064,1064,0,0,0,0,
1064,1064,1064,1064,1064,1064,1064,1064,1064,1064,1064,1064,0,0,0,0,
1064,1064,1064,1064,1064,1064,1064,1064,1064,1064,1064,1064,0,0,0,0,
1064,1064,1064,1064,1064,1064,1064,1064,1064,1064,1064,1064,0,0,0,0,
1064,1064,1064,1064,1064,1064,1064,1064,1064,1064,1064,1064,0,0,0,0
</chunk>
   <chunk x="-16" y="-16" width="16" height="16">
0,0,0,0,0,0,1064,1064,1064,1064,1064,1064,1064,1064,1064,1064,
0,0,0,0,0,0,1064,1064,1064,1064,1064,1064,1064,1064,1064,1064,
0,0,0,0,0,0,1064,1064,1064,1064,1064,1064,1064,1064,1064,1064,
0,0,0,0,0,0,1064,1064,1064,1064,1064,1064,1064,1064,1064,1064,
0,0,0,0,0,0,1064,1064,1064,1064,1064,1064,1064,1064,1064,1064,
0,0,0,0,0,0,1064,1064,1064,1064,1064,1064,1064,1064,1064,1064,
0,0,0,0,0,0,1064,1064,1064,1064,1064,1064,1064,1064,1064,1064,
0,0,0,0,0,0,1064,1064,1064,1064,1064,1064,1064,1064,1064,1064,
0,0,0,0,0,0,1064,1064,1064,1064,1064,1064,1064,1064,1064,1064,
0,0,0,0,0,0,1064,1064,1064,1064,1064,1064,1064,1064,1064,1064,
0,0,0,0,0,0,1064,1064,1064,1064,1064,1064,1064,1064,1064,1064,
0,0,0,0,0,0,1064,1064,1064,1064,1064,1064,1064,1064,1064,1064,
0,0,0,0,0,0,1064,1064,1064,1064,1064,1064,1064,1064,1064,1064,
0,0,0,0,0,0,1064,1064,1064,1064,1064,1064,1064,1064,1064,1064,
0,0,0,0,0,0,1064,1064,1064,1064,1064,1064,1064,1064,1064,1064,
0,0,0,0,0,0,1064,1064,1064,1064,1064,1064,1064,1064,1064,1064
</chunk>
   <chunk x="0" y="-16" width="16" height="16">
1064,1064,1064,1064,1064,1064,1064,1064,1064,1064,1064,1064,1064,1064,1064,1064,
1064,1064,1064,1064,1064,1064,1064,1064,1064,1064,1064,1064,1064,1064,1064,1064,
1064,1064,1064,1064,1064,1064,1064,1064,1064,1064,1064,1064,1064,1064,1064,1064,
1064,1064,1064,1064,1064,1064,1064,1064,1064,1064,1064,1064,1064,1064,1064,1064,
1064,1064,1064,1064,1064,1064,1064,1064,0,0,0,0,0,0,1064,1064,
1064,1064,1064,1064,1064,1064,1064,1064,1067,1112,1112,1112,1112,1068,0,1064,
1064,1064,1064,1064,1064,1064,1064,1067,1112,1113,0,0,1111,1112,1068,1064,
1064,1064,1064,0,0,0,0,0,1065,0,0,0,0,1063,0,0,
1064,1064,1064,1067,1112,1112,1112,1112,1113,0,0,0,0,1111,1112,1112,
0,0,0,0,1065,0,0,0,0,0,0,0,0,0,0,0,
1112,1112,1112,1112,1113,0,0,0,0,0,0,0,0,0,0,0,
0,0,0,0,0,0,0,0,0,0,0,0,0,0,0,0,
0,0,0,0,0,0,0,0,0,0,0,0,0,0,0,0,
0,0,0,0,0,0,0,0,0,0,0,0,0,0,0,0,
0,0,0,0,0,0,0,0,0,0,0,0,0,0,0,0,
0,0,0,0,0,0,0,0,0,0,0,0,0,0,0,0
</chunk>
   <chunk x="16" y="-16" width="16" height="16">
1064,1064,1064,1064,1064,1064,1064,1064,1064,1064,1064,1064,1064,1064,1064,1064,
1064,1064,1064,1064,1064,1064,1064,1064,1064,1064,1064,1064,1064,1064,1064,1064,
1064,1064,1064,1064,1064,1064,1064,1064,1064,1064,1064,1064,1064,1064,1064,1064,
1064,1064,1064,1064,1064,1064,1064,1064,1064,1064,1064,1064,1064,1064,1064,1064,
1064,1064,1064,1064,1064,1064,1064,1064,1064,1064,1064,1064,1064,1064,1064,1064,
1064,1064,1064,1064,1064,1064,1064,1064,0,0,0,0,0,1064,1064,1064,
1064,1064,1064,1064,1064,1064,1064,1064,0,1112,1112,1112,0,1064,1064,1064,
0,0,0,1064,1064,0,0,0,1112,1113,0,1111,1112,0,0,0,
1112,1112,1068,1064,1064,0,1112,1112,1113,0,0,0,1111,1112,1112,1112,
0,1063,0,0,0,0,1065,0,0,0,0,0,84,85,86,87,
0,1111,1112,1112,1112,1112,1113,0,0,0,0,0,132,133,134,135,
0,0,0,0,0,0,0,0,0,0,0,0,180,181,182,183,
0,0,0,0,0,0,0,0,0,0,0,0,228,229,230,231,
0,0,0,0,0,0,0,0,0,0,0,0,276,277,278,279,
0,0,0,0,0,0,0,0,0,0,0,0,324,325,326,327,
0,0,0,0,0,0,0,0,0,0,0,0,372,373,374,375
</chunk>
   <chunk x="32" y="-16" width="16" height="16">
1064,1064,1064,1064,1064,1064,1064,1064,1064,1064,1064,1064,1064,1064,1064,1064,
1064,1064,1064,1064,1064,1064,1064,1064,1064,1064,1064,1064,1064,1064,1064,1064,
1064,1064,1064,1064,1064,1064,1064,1064,1064,1064,1064,1064,1064,1064,1064,1064,
1064,1064,1064,1064,1064,1064,1064,1064,1064,1064,1064,1064,1064,1064,1064,1064,
1064,1064,1064,1064,1064,1064,1064,1064,1064,1064,1064,1064,1064,1064,1064,1064,
1064,1064,1064,1064,1064,1064,1064,1064,0,0,0,0,0,1064,1064,1064,
1064,1064,1064,1064,1064,1064,1064,1064,0,1112,1112,1112,0,1064,1064,1064,
0,0,0,0,0,0,0,0,1112,1113,0,1111,1112,0,0,0,
1112,1112,1112,1112,1112,1112,1112,1112,1113,0,0,0,1111,1112,1112,0,
88,89,90,91,92,93,94,95,96,0,0,0,0,0,1063,0,
136,137,138,139,140,141,142,143,144,0,0,0,0,0,1111,1112,
184,185,186,187,188,189,190,191,192,0,0,0,0,0,0,0,
232,233,234,235,236,237,238,239,240,0,0,0,0,0,0,0,
280,281,282,283,284,285,286,287,288,0,0,0,0,0,0,0,
328,329,330,331,332,333,334,335,336,0,0,0,0,0,0,0,
376,377,378,379,380,381,382,383,384,0,0,0,0,0,0,0
</chunk>
   <chunk x="48" y="-16" width="16" height="16">
1064,1064,1064,1064,1064,1064,1064,1064,1064,1064,1064,1064,0,0,0,0,
1064,1064,1064,1064,1064,1064,1064,1064,1064,1064,1064,1064,0,0,0,0,
1064,1064,1064,1064,1064,1064,1064,1064,1064,1064,1064,1064,0,0,0,0,
1064,1064,1064,1064,1064,1064,1064,1064,1064,1064,1064,1064,0,0,0,0,
1064,1064,1064,1064,1064,1064,1064,1064,1064,1064,1064,1064,0,0,0,0,
1064,1064,1064,1064,1064,1064,1064,1064,1064,1064,1064,1064,0,0,0,0,
1064,1064,1064,1064,1064,1064,1064,1064,1064,1064,1064,1064,0,0,0,0,
1064,1064,1064,1064,1064,1064,1064,1064,1064,1064,1064,1064,0,0,0,0,
1064,1064,1064,1064,1064,1064,1064,1064,1064,1064,1064,1064,0,0,0,0,
0,0,1064,1064,1064,1064,1064,1064,1064,1064,1064,1064,0,0,0,0,
1112,1112,1064,1064,1064,1064,1064,1064,1064,1064,1064,1064,0,0,0,0,
0,660,1064,1064,1064,1064,1064,1064,1064,1064,1064,1064,0,0,0,0,
0,660,1064,1064,1064,1064,1064,1064,1064,1064,1064,1064,0,0,0,0,
0,660,1064,1064,1064,1064,1064,1064,1064,1064,1064,1064,0,0,0,0,
0,660,1064,1064,1064,1064,1064,1064,1064,1064,1064,1064,0,0,0,0,
0,660,1064,1064,1064,1064,1064,1064,1064,1064,1064,1064,0,0,0,0
</chunk>
   <chunk x="-16" y="0" width="16" height="16">
0,0,0,0,0,0,1064,1064,1064,1064,1064,1064,1064,1064,1064,1064,
0,0,0,0,0,0,1064,1064,1064,1064,1064,1064,1064,1064,1064,1064,
0,0,0,0,0,0,1064,1064,1064,1064,1064,1064,1064,1064,1064,1064,
0,0,0,0,0,0,1064,1064,1064,1064,1064,1064,1064,1064,1064,1064,
0,0,0,0,0,0,1064,1064,1064,1064,1064,1064,1064,1064,1064,1064,
0,0,0,0,0,0,1064,1064,1064,1064,1064,1064,1064,1064,1064,1064,
0,0,0,0,0,0,1064,1064,1064,1064,1064,1064,1064,1064,1064,1064,
0,0,0,0,0,0,1064,1064,1064,1064,1064,1064,1064,1064,1064,1064,
0,0,0,0,0,0,1064,1064,1064,1064,1064,1064,1064,1064,1064,1064,
0,0,0,0,0,0,1064,1064,1064,1064,1064,1064,1064,1064,1064,1064,
0,0,0,0,0,0,1064,1064,1064,1064,1064,1064,1064,1064,1064,1064,
0,0,0,0,0,0,1064,1064,1064,1064,1064,1064,1064,1064,1064,1064,
0,0,0,0,0,0,1064,1064,1064,1064,1064,1064,1064,1064,1064,1064,
0,0,0,0,0,0,1064,1064,1064,1064,1064,1064,1064,1064,1064,1064,
0,0,0,0,0,0,1064,1064,1064,1064,1064,1064,1064,1064,1064,1064,
0,0,0,0,0,0,1064,1064,1064,1064,1064,1064,1064,1064,1064,1064
</chunk>
   <chunk x="0" y="0" width="16" height="16">
1016,1016,1016,1016,1017,0,0,1015,1016,1017,0,0,1015,1016,1017,0,
0,0,0,0,1065,0,0,1063,0,1065,0,0,1063,0,1065,0,
1064,1064,1064,0,1065,0,0,1063,0,1065,0,0,1063,0,1065,0,
1064,1064,1064,0,1065,0,0,1063,0,1065,0,0,1063,0,1065,0,
1064,1064,1064,0,1016,1016,1016,1016,0,1016,1016,1016,1016,0,1016,1016,
1064,1064,1064,0,0,0,0,0,0,0,0,0,0,0,0,0,
1064,1064,1064,1064,1064,1064,1064,1064,1064,1064,1064,1064,1064,1064,1064,1064,
1064,1064,1064,1064,1064,1064,1064,1064,1064,1064,1064,1064,1064,1064,1064,1064,
1064,1064,1064,1064,1064,1064,1064,1064,1064,1064,1064,1064,1064,1064,1064,1064,
1064,1064,1064,1064,1064,1064,1064,1064,1064,1064,1064,1064,1064,1064,1064,1064,
1064,1064,1064,1064,1064,1064,1064,1064,1064,1064,1064,1064,1064,1064,1064,1064,
1064,1064,1064,1064,1064,1064,1064,1064,1064,1064,1064,1064,1064,1064,1064,1064,
1064,1064,1064,1064,1064,1064,1064,1064,1064,1064,1064,1064,1064,1064,1064,1064,
1064,1064,1064,1064,1064,1064,1064,1064,1064,1064,1064,1064,1064,1064,1064,1064,
1064,1064,1064,1064,1064,1064,1064,1064,1064,1064,1064,1064,1064,1064,1064,1064,
1064,1064,1064,1064,1064,1064,1064,1064,1064,1064,1064,1064,1064,1064,1064,1064
</chunk>
   <chunk x="16" y="0" width="16" height="16">
0,1015,1016,1016,1016,1016,1017,0,0,0,0,0,420,421,422,423,
0,1063,0,0,0,0,1065,0,0,0,0,0,468,469,470,471,
0,1063,0,1064,1064,0,1016,1016,1017,0,0,0,516,517,518,519,
0,1063,0,1064,1064,0,0,0,1016,1016,1016,1016,1016,1016,1016,1016,
1016,1016,0,1064,1064,1064,1064,0,0,0,0,0,0,0,0,0,
0,0,0,1064,1064,1064,1064,1064,1064,1064,1064,1064,1064,1064,1064,1064,
1064,1064,1064,1064,1064,1064,1064,1064,1064,1064,1064,1064,1064,1064,1064,1064,
1064,1064,1064,1064,1064,1064,1064,1064,1064,1064,1064,1064,1064,1064,1064,1064,
1064,1064,1064,1064,1064,1064,1064,1064,1064,1064,1064,1064,1064,1064,1064,1064,
1064,1064,1064,1064,1064,1064,1064,1064,1064,1064,1064,1064,1064,1064,1064,1064,
1064,1064,1064,1064,1064,1064,1064,1064,1064,1064,1064,1064,1064,1064,1064,1064,
1064,1064,1064,1064,1064,1064,1064,1064,1064,1064,1064,1064,1064,1064,1064,1064,
1064,1064,1064,1064,1064,1064,1064,1064,1064,1064,1064,1064,1064,1064,1064,1064,
1064,1064,1064,1064,1064,1064,1064,1064,1064,1064,1064,1064,1064,1064,1064,1064,
1064,1064,1064,1064,1064,1064,1064,1064,1064,1064,1064,1064,1064,1064,1064,1064,
1064,1064,1064,1064,1064,1064,1064,1064,1064,1064,1064,1064,1064,1064,1064,1064
</chunk>
   <chunk x="32" y="0" width="16" height="16">
424,425,426,427,428,429,430,431,432,0,0,0,0,0,1015,1016,
472,473,474,475,476,477,478,479,480,0,0,0,0,0,1063,0,
520,521,522,523,524,525,526,527,528,0,0,0,1015,1016,1016,0,
1016,1016,1016,1016,1016,1016,1016,1016,1016,1016,1016,1016,1016,0,0,0,
0,0,0,0,0,0,0,0,0,0,0,0,0,0,1064,1064,
1064,1064,1064,1064,1064,1064,1064,1064,1064,1064,1064,1064,1064,1064,1064,1064,
1064,1064,1064,1064,1064,1064,1064,1064,1064,1064,1064,1064,1064,1064,1064,1064,
1064,1064,1064,1064,1064,1064,1064,1064,1064,1064,1064,1064,1064,1064,1064,1064,
1064,1064,1064,1064,1064,1064,1064,1064,1064,1064,1064,1064,1064,1064,1064,1064,
1064,1064,1064,1064,1064,1064,1064,1064,1064,1064,1064,1064,1064,1064,1064,1064,
1064,1064,1064,1064,1064,1064,1064,1064,1064,1064,1064,1064,1064,1064,1064,1064,
1064,1064,1064,1064,1064,1064,1064,1064,1064,1064,1064,1064,1064,1064,1064,1064,
1064,1064,1064,1064,1064,1064,1064,1064,1064,1064,1064,1064,1064,1064,1064,1064,
1064,1064,1064,1064,1064,1064,1064,1064,1064,1064,1064,1064,1064,1064,1064,1064,
1064,1064,1064,1064,1064,1064,1064,1064,1064,1064,1064,1064,1064,1064,1064,1064,
1064,1064,1064,1064,1064,1064,1064,1064,1064,1064,1064,1064,1064,1064,1064,1064
</chunk>
   <chunk x="48" y="0" width="16" height="16">
1016,1016,1064,1064,1064,1064,1064,1064,1064,1064,1064,1064,0,0,0,0,
0,0,1064,1064,1064,1064,1064,1064,1064,1064,1064,1064,0,0,0,0,
1064,1064,1064,1064,1064,1064,1064,1064,1064,1064,1064,1064,0,0,0,0,
1064,1064,1064,1064,1064,1064,1064,1064,1064,1064,1064,1064,0,0,0,0,
1064,1064,1064,1064,1064,1064,1064,1064,1064,1064,1064,1064,0,0,0,0,
1064,1064,1064,1064,1064,1064,1064,1064,1064,1064,1064,1064,0,0,0,0,
1064,1064,1064,1064,1064,1064,1064,1064,1064,1064,1064,1064,0,0,0,0,
1064,1064,1064,1064,1064,1064,1064,1064,1064,1064,1064,1064,0,0,0,0,
1064,1064,1064,1064,1064,1064,1064,1064,1064,1064,1064,1064,0,0,0,0,
1064,1064,1064,1064,1064,1064,1064,1064,1064,1064,1064,1064,0,0,0,0,
1064,1064,1064,1064,1064,1064,1064,1064,1064,1064,1064,1064,0,0,0,0,
1064,1064,1064,1064,1064,1064,1064,1064,1064,1064,1064,1064,0,0,0,0,
1064,1064,1064,1064,1064,1064,1064,1064,1064,1064,1064,1064,0,0,0,0,
1064,1064,1064,1064,1064,1064,1064,1064,1064,1064,1064,1064,0,0,0,0,
1064,1064,1064,1064,1064,1064,1064,1064,1064,1064,1064,1064,0,0,0,0,
1064,1064,1064,1064,1064,1064,1064,1064,1064,1064,1064,1064,0,0,0,0
</chunk>
   <chunk x="-16" y="16" width="16" height="16">
0,0,0,0,0,0,1064,1064,1064,1064,1064,1064,1064,1064,1064,1064,
0,0,0,0,0,0,1064,1064,1064,1064,1064,1064,1064,1064,1064,1064,
0,0,0,0,0,0,1064,1064,1064,1064,1064,1064,1064,1064,1064,1064,
0,0,0,0,0,0,1064,1064,1064,1064,1064,1064,1064,1064,1064,1064,
0,0,0,0,0,0,1064,1064,1064,1064,1064,1064,1064,1064,1064,1064,
0,0,0,0,0,0,1064,1064,1064,1064,1064,1064,1064,1064,1064,1064,
0,0,0,0,0,0,1064,1064,1064,1064,1064,1064,1064,1064,1064,1064,
0,0,0,0,0,0,1064,1064,1064,1064,1064,1064,1064,1064,1064,1064,
0,0,0,0,0,0,1064,1064,1064,1064,1064,1064,1064,1064,1064,1064,
0,0,0,0,0,0,1064,1064,1064,1064,1064,1064,1064,1064,1064,1064,
0,0,0,0,0,0,1064,1064,1064,1064,1064,1064,1064,1064,1064,1064,
0,0,0,0,0,0,1064,1064,1064,1064,1064,1064,1064,1064,1064,1064,
0,0,0,0,0,0,1064,1064,1064,1064,1064,1064,1064,1064,1064,1064,
0,0,0,0,0,0,1064,1064,1064,1064,1064,1064,1064,1064,1064,1064,
0,0,0,0,0,0,0,0,0,0,0,0,0,0,0,0,
0,0,0,0,0,0,0,0,0,0,0,0,0,0,0,0
</chunk>
   <chunk x="0" y="16" width="16" height="16">
1064,1064,1064,1064,1064,1064,1064,1064,1064,1064,1064,1064,1064,1064,1064,1064,
1064,1064,1064,1064,1064,1064,1064,1064,1064,1064,1064,1064,1064,1064,1064,1064,
1064,1064,1064,1064,1064,1064,1064,1064,1064,1064,1064,1064,1064,1064,1064,1064,
1064,1064,1064,1064,1064,1064,1064,1064,1064,1064,1064,1064,1064,1064,1064,1064,
1064,1064,1064,1064,1064,1064,1064,1064,1064,1064,1064,1064,1064,1064,1064,1064,
1064,1064,1064,1064,1064,1064,1064,1064,1064,1064,1064,1064,1064,1064,1064,1064,
1064,1064,1064,1064,1064,1064,1064,1064,1064,1064,1064,1064,1064,1064,1064,1064,
1064,1064,1064,1064,1064,1064,1064,1064,1064,1064,1064,1064,1064,1064,1064,1064,
1064,1064,1064,1064,1064,1064,1064,1064,1064,1064,1064,1064,1064,1064,1064,1064,
1064,1064,1064,1064,1064,1064,1064,1064,1064,1064,1064,1064,1064,1064,1064,1064,
1064,1064,1064,1064,1064,1064,1064,1064,1064,1064,1064,1064,1064,1064,1064,1064,
1064,1064,1064,1064,1064,1064,1064,1064,1064,1064,1064,1064,1064,1064,1064,1064,
1064,1064,1064,1064,1064,1064,1064,1064,1064,1064,1064,1064,1064,1064,1064,1064,
1064,1064,1064,1064,1064,1064,1064,1064,1064,1064,1064,1064,1064,1064,1064,1064,
0,0,0,0,0,0,0,0,0,0,0,0,0,0,0,0,
0,0,0,0,0,0,0,0,0,0,0,0,0,0,0,0
</chunk>
   <chunk x="16" y="16" width="16" height="16">
1064,1064,1064,1064,1064,1064,1064,1064,1064,1064,1064,1064,1064,1064,1064,1064,
1064,1064,1064,1064,1064,1064,1064,1064,1064,1064,1064,1064,1064,1064,1064,1064,
1064,1064,1064,1064,1064,1064,1064,1064,1064,1064,1064,1064,1064,1064,1064,1064,
1064,1064,1064,1064,1064,1064,1064,1064,1064,1064,1064,1064,1064,1064,1064,1064,
1064,1064,1064,1064,1064,1064,1064,1064,1064,1064,1064,1064,1064,1064,1064,1064,
1064,1064,1064,1064,1064,1064,1064,1064,1064,1064,1064,1064,1064,1064,1064,1064,
1064,1064,1064,1064,1064,1064,1064,1064,1064,1064,1064,1064,1064,1064,1064,1064,
1064,1064,1064,1064,1064,1064,1064,1064,1064,1064,1064,1064,1064,1064,1064,1064,
1064,1064,1064,1064,1064,1064,1064,1064,1064,1064,1064,1064,1064,1064,1064,1064,
1064,1064,1064,1064,1064,1064,1064,1064,1064,1064,1064,1064,1064,1064,1064,1064,
1064,1064,1064,1064,1064,1064,1064,1064,1064,1064,1064,1064,1064,1064,1064,1064,
1064,1064,1064,1064,1064,1064,1064,1064,1064,1064,1064,1064,1064,1064,1064,1064,
1064,1064,1064,1064,1064,1064,1064,1064,1064,1064,1064,1064,1064,1064,1064,1064,
1064,1064,1064,1064,1064,1064,1064,1064,1064,1064,1064,1064,1064,1064,1064,1064,
0,0,0,0,0,0,0,0,0,0,0,0,0,0,0,0,
0,0,0,0,0,0,0,0,0,0,0,0,0,0,0,0
</chunk>
   <chunk x="32" y="16" width="16" height="16">
1064,1064,1064,1064,1064,1064,1064,1064,1064,1064,1064,1064,1064,1064,1064,1064,
1064,1064,1064,1064,1064,1064,1064,1064,1064,1064,1064,1064,1064,1064,1064,1064,
1064,1064,1064,1064,1064,1064,1064,1064,1064,1064,1064,1064,1064,1064,1064,1064,
1064,1064,1064,1064,1064,1064,1064,1064,1064,1064,1064,1064,1064,1064,1064,1064,
1064,1064,1064,1064,1064,1064,1064,1064,1064,1064,1064,1064,1064,1064,1064,1064,
1064,1064,1064,1064,1064,1064,1064,1064,1064,1064,1064,1064,1064,1064,1064,1064,
1064,1064,1064,1064,1064,1064,1064,1064,1064,1064,1064,1064,1064,1064,1064,1064,
1064,1064,1064,1064,1064,1064,1064,1064,1064,1064,1064,1064,1064,1064,1064,1064,
1064,1064,1064,1064,1064,1064,1064,1064,1064,1064,1064,1064,1064,1064,1064,1064,
1064,1064,1064,1064,1064,1064,1064,1064,1064,1064,1064,1064,1064,1064,1064,1064,
1064,1064,1064,1064,1064,1064,1064,1064,1064,1064,1064,1064,1064,1064,1064,1064,
1064,1064,1064,1064,1064,1064,1064,1064,1064,1064,1064,1064,1064,1064,1064,1064,
1064,1064,1064,1064,1064,1064,1064,1064,1064,1064,1064,1064,1064,1064,1064,1064,
1064,1064,1064,1064,1064,1064,1064,1064,1064,1064,1064,1064,1064,1064,1064,1064,
0,0,0,0,0,0,0,0,0,0,0,0,0,0,0,0,
0,0,0,0,0,0,0,0,0,0,0,0,0,0,0,0
</chunk>
   <chunk x="48" y="16" width="16" height="16">
1064,1064,1064,1064,1064,1064,1064,1064,1064,1064,1064,1064,0,0,0,0,
1064,1064,1064,1064,1064,1064,1064,1064,1064,1064,1064,1064,0,0,0,0,
1064,1064,1064,1064,1064,1064,1064,1064,1064,1064,1064,1064,0,0,0,0,
1064,1064,1064,1064,1064,1064,1064,1064,1064,1064,1064,1064,0,0,0,0,
1064,1064,1064,1064,1064,1064,1064,1064,1064,1064,1064,1064,0,0,0,0,
1064,1064,1064,1064,1064,1064,1064,1064,1064,1064,1064,1064,0,0,0,0,
1064,1064,1064,1064,1064,1064,1064,1064,1064,1064,1064,1064,0,0,0,0,
1064,1064,1064,1064,1064,1064,1064,1064,1064,1064,1064,1064,0,0,0,0,
1064,1064,1064,1064,1064,1064,1064,1064,1064,1064,1064,1064,0,0,0,0,
1064,1064,1064,1064,1064,1064,1064,1064,1064,1064,1064,1064,0,0,0,0,
1064,1064,1064,1064,1064,1064,1064,1064,1064,1064,1064,1064,0,0,0,0,
1064,1064,1064,1064,1064,1064,1064,1064,1064,1064,1064,1064,0,0,0,0,
1064,1064,1064,1064,1064,1064,1064,1064,1064,1064,1064,1064,0,0,0,0,
1064,1064,1064,1064,1064,1064,1064,1064,1064,1064,1064,1064,0,0,0,0,
0,0,0,0,0,0,0,0,0,0,0,0,0,0,0,0,
0,0,0,0,0,0,0,0,0,0,0,0,0,0,0,0
</chunk>
  </data>
 </layer>
 <layer id="8" name="Spikes" width="30" height="20">
  <properties>
   <property name="Spikes" type="int" value="1"/>
  </properties>
  <data encoding="csv">
   <chunk x="0" y="0" width="16" height="16">
0,0,0,0,0,0,0,0,0,0,0,0,0,0,0,0,
0,0,0,0,0,0,0,0,0,0,0,0,0,0,0,0,
0,0,0,0,0,0,0,0,0,0,0,0,0,0,0,0,
0,0,0,0,0,169,169,0,0,0,169,169,0,0,0,169,
0,0,0,0,0,0,0,0,0,0,0,0,0,0,0,0,
0,0,0,0,0,0,0,0,0,0,0,0,0,0,0,0,
0,0,0,0,0,0,0,0,0,0,0,0,0,0,0,0,
0,0,0,0,0,0,0,0,0,0,0,0,0,0,0,0,
0,0,0,0,0,0,0,0,0,0,0,0,0,0,0,0,
0,0,0,0,0,0,0,0,0,0,0,0,0,0,0,0,
0,0,0,0,0,0,0,0,0,0,0,0,0,0,0,0,
0,0,0,0,0,0,0,0,0,0,0,0,0,0,0,0,
0,0,0,0,0,0,0,0,0,0,0,0,0,0,0,0,
0,0,0,0,0,0,0,0,0,0,0,0,0,0,0,0,
0,0,0,0,0,0,0,0,0,0,0,0,0,0,0,0,
0,0,0,0,0,0,0,0,0,0,0,0,0,0,0,0
</chunk>
   <chunk x="16" y="0" width="16" height="16">
0,0,0,0,0,0,0,0,0,0,0,0,0,0,0,0,
0,0,0,0,0,0,0,0,0,0,0,0,0,0,0,0,
0,0,0,0,0,0,0,0,0,0,0,0,0,0,0,0,
169,0,0,0,0,0,0,0,0,0,0,0,0,0,0,0,
0,0,0,0,0,0,0,0,0,0,0,0,0,0,0,0,
0,0,0,0,0,0,0,0,0,0,0,0,0,0,0,0,
0,0,0,0,0,0,0,0,0,0,0,0,0,0,0,0,
0,0,0,0,0,0,0,0,0,0,0,0,0,0,0,0,
0,0,0,0,0,0,0,0,0,0,0,0,0,0,0,0,
0,0,0,0,0,0,0,0,0,0,0,0,0,0,0,0,
0,0,0,0,0,0,0,0,0,0,0,0,0,0,0,0,
0,0,0,0,0,0,0,0,0,0,0,0,0,0,0,0,
0,0,0,0,0,0,0,0,0,0,0,0,0,0,0,0,
0,0,0,0,0,0,0,0,0,0,0,0,0,0,0,0,
0,0,0,0,0,0,0,0,0,0,0,0,0,0,0,0,
0,0,0,0,0,0,0,0,0,0,0,0,0,0,0,0
</chunk>
  </data>
 </layer>
 <layer id="7" name="Shrubbery" width="30" height="20">
  <properties>
   <property name="layer" type="int" value="2"/>
  </properties>
  <data encoding="csv">
   <chunk x="0" y="-16" width="16" height="16">
0,0,0,0,0,0,0,0,0,0,0,0,0,0,0,0,
0,0,0,0,0,0,0,0,0,0,0,0,0,0,0,0,
0,0,0,0,0,0,0,0,0,0,0,0,0,0,0,0,
0,0,0,0,0,0,0,0,0,0,0,0,0,0,0,0,
0,0,0,0,0,0,0,0,0,0,0,0,0,0,0,0,
0,0,0,0,0,0,0,0,0,0,0,0,0,0,0,0,
0,0,0,0,0,0,0,0,0,0,0,559,0,0,0,0,
0,0,0,0,0,0,0,0,0,562,0,0,0,0,0,0,
0,0,0,0,0,0,0,0,0,0,0,0,0,0,0,0,
0,0,0,0,0,514,0,0,0,0,0,0,0,0,0,511,
0,0,0,0,0,562,0,0,0,0,0,0,0,0,0,559,
0,0,0,0,0,0,0,0,0,0,0,0,0,0,0,0,
0,0,0,0,0,0,0,0,0,0,0,0,0,0,0,0,
0,0,0,0,0,0,0,0,0,0,0,0,0,0,0,0,
0,314,315,316,317,0,0,0,0,0,0,0,0,0,0,0,
0,362,363,364,365,0,0,0,0,0,0,0,0,0,0,0
</chunk>
   <chunk x="16" y="-16" width="16" height="16">
0,0,0,0,0,0,0,0,0,0,0,0,0,0,0,0,
0,0,0,0,0,0,0,0,0,0,0,0,0,0,0,0,
0,0,0,0,0,0,0,0,0,0,0,0,0,0,0,0,
0,0,0,0,0,0,0,0,0,0,0,0,0,0,0,0,
0,0,0,0,0,0,0,0,0,0,0,0,0,0,0,0,
0,0,0,0,0,0,0,0,0,0,0,0,0,0,0,0,
0,0,0,0,0,0,0,0,0,0,0,0,0,0,0,0,
0,0,0,0,0,0,0,0,0,0,0,0,0,0,0,0,
0,0,0,0,0,0,0,0,0,0,0,0,0,0,0,0,
512,0,0,0,0,0,0,513,514,0,0,0,0,0,0,0,
560,0,0,0,0,0,0,561,562,0,0,0,0,0,0,0,
0,0,0,0,0,0,0,0,0,0,0,0,0,0,0,0,
0,0,0,0,0,0,0,0,0,0,0,0,0,0,0,0,
0,0,0,0,0,0,0,0,0,0,0,0,0,0,0,0,
0,314,315,317,0,0,0,0,0,0,0,0,0,0,0,0,
0,362,363,365,0,0,0,0,0,0,0,0,0,0,0,0
</chunk>
   <chunk x="32" y="-16" width="16" height="16">
0,0,0,0,0,0,0,0,0,0,0,0,0,0,0,0,
0,0,0,0,0,0,0,0,0,0,0,0,0,0,0,0,
0,0,0,0,0,0,0,0,0,0,0,0,0,0,0,0,
0,0,0,0,0,0,0,0,0,0,0,0,0,0,0,0,
0,0,0,0,0,0,0,0,0,0,0,0,0,0,0,0,
0,0,0,0,0,0,0,0,0,0,0,0,0,0,0,0,
0,0,0,0,0,0,0,0,0,0,0,0,0,0,0,0,
0,0,0,0,0,0,0,0,0,0,562,0,0,0,0,0,
0,0,0,0,0,0,0,0,0,562,0,0,0,0,0,0,
0,0,0,0,0,0,0,0,0,0,0,0,0,511,0,0,
0,0,0,0,0,0,0,0,0,0,0,0,0,559,0,0,
0,0,0,0,0,0,0,0,0,0,0,0,0,0,0,0,
0,0,0,0,0,0,0,0,0,0,0,0,0,0,0,0,
0,0,0,0,0,0,0,0,0,0,0,0,0,0,0,0,
0,0,0,0,0,0,0,0,0,0,0,0,0,0,0,0,
0,0,0,0,0,0,0,0,0,0,0,0,0,0,0,0
</chunk>
   <chunk x="16" y="0" width="16" height="16">
0,0,0,0,0,0,0,316,317,0,0,0,0,0,0,0,
0,0,0,0,0,0,0,364,365,0,0,0,0,0,0,314,
0,0,0,0,0,0,0,0,0,26,27,0,0,0,0,362,
0,0,0,0,0,0,0,0,0,0,0,0,0,0,0,0,
0,0,0,0,0,0,0,0,0,0,0,0,0,0,0,0,
0,0,0,0,0,0,0,0,0,0,0,0,0,0,0,0,
0,0,0,0,0,0,0,0,0,0,0,0,0,0,0,0,
0,0,0,0,0,0,0,0,0,0,0,0,0,0,0,0,
0,0,0,0,0,0,0,0,0,0,0,0,0,0,0,0,
0,0,0,0,0,0,0,0,0,0,0,0,0,0,0,0,
0,0,0,0,0,0,0,0,0,0,0,0,0,0,0,0,
0,0,0,0,0,0,0,0,0,0,0,0,0,0,0,0,
0,0,0,0,0,0,0,0,0,0,0,0,0,0,0,0,
0,0,0,0,0,0,0,0,0,0,0,0,0,0,0,0,
0,0,0,0,0,0,0,0,0,0,0,0,0,0,0,0,
0,0,0,0,0,0,0,0,0,0,0,0,0,0,0,0
</chunk>
   <chunk x="32" y="0" width="16" height="16">
0,0,0,0,0,0,0,0,0,0,0,0,314,315,0,0,
315,316,317,0,0,314,315,316,317,0,0,0,362,363,0,0,
363,364,365,0,0,362,363,364,365,0,0,319,0,0,0,0,
0,0,0,0,0,0,0,0,0,0,0,0,0,0,0,0,
0,0,0,0,0,0,0,0,0,0,0,0,0,0,0,0,
0,0,0,0,0,0,0,0,0,0,0,0,0,0,0,0,
0,0,0,0,0,0,0,0,0,0,0,0,0,0,0,0,
0,0,0,0,0,0,0,0,0,0,0,0,0,0,0,0,
0,0,0,0,0,0,0,0,0,0,0,0,0,0,0,0,
0,0,0,0,0,0,0,0,0,0,0,0,0,0,0,0,
0,0,0,0,0,0,0,0,0,0,0,0,0,0,0,0,
0,0,0,0,0,0,0,0,0,0,0,0,0,0,0,0,
0,0,0,0,0,0,0,0,0,0,0,0,0,0,0,0,
0,0,0,0,0,0,0,0,0,0,0,0,0,0,0,0,
0,0,0,0,0,0,0,0,0,0,0,0,0,0,0,0,
0,0,0,0,0,0,0,0,0,0,0,0,0,0,0,0
</chunk>
  </data>
 </layer>
 <layer id="5" name="Grass" width="30" height="20">
  <properties>
   <property name="layer" type="int" value="3"/>
  </properties>
  <data encoding="csv">
   <chunk x="0" y="-16" width="16" height="16">
0,0,0,0,0,0,0,0,0,0,0,0,0,0,0,0,
0,0,0,0,0,0,0,0,0,0,0,0,0,0,0,0,
0,0,0,0,0,0,0,0,0,0,0,0,0,0,0,0,
0,0,0,0,0,0,0,0,0,0,0,0,0,0,0,0,
0,0,0,0,0,0,0,0,306,307,210,211,308,309,0,0,
0,0,0,0,0,0,0,306,354,355,258,259,356,308,309,0,
0,0,0,0,0,0,0,354,355,261,0,0,256,356,357,0,
0,0,0,306,307,210,211,212,213,0,0,0,0,208,209,210,
0,0,0,354,355,258,259,260,261,0,0,0,0,256,257,258,
210,211,210,212,213,0,0,0,0,0,0,0,0,0,0,0,
258,259,258,260,261,0,0,0,0,0,0,0,0,0,0,0,
0,0,0,0,0,0,0,0,0,0,0,0,0,0,0,0,
0,0,0,0,0,0,0,0,0,0,0,0,0,0,0,0,
0,0,0,0,0,0,0,0,0,0,0,0,0,0,0,0,
0,0,0,0,0,0,0,0,0,0,0,0,0,0,0,0,
0,0,0,0,0,0,0,0,0,0,0,0,0,0,0,0
</chunk>
   <chunk x="16" y="-16" width="16" height="16">
0,0,0,0,0,0,0,0,0,0,0,0,0,0,0,0,
0,0,0,0,0,0,0,0,0,0,0,0,0,0,0,0,
0,0,0,0,0,0,0,0,0,0,0,0,0,0,0,0,
0,0,0,0,0,0,0,0,0,0,0,0,0,0,0,0,
0,0,0,0,0,0,0,0,0,0,0,0,0,0,0,0,
0,0,0,0,0,0,0,0,306,307,210,308,309,0,0,0,
0,0,0,0,0,0,0,306,354,355,258,356,308,309,0,0,
211,308,309,0,0,306,307,354,355,261,0,256,356,357,210,211,
259,356,357,0,0,354,355,260,261,0,0,0,256,257,258,259,
0,208,209,210,211,212,213,0,0,0,0,0,0,0,0,0,
0,256,257,258,259,260,261,0,0,0,0,0,0,0,0,0,
0,0,0,0,0,0,0,0,0,0,0,0,0,0,0,0,
0,0,0,0,0,0,0,0,0,0,0,0,0,0,0,0,
0,0,0,0,0,0,0,0,0,0,0,0,0,0,0,0,
0,0,0,0,0,0,0,0,0,0,0,0,0,0,0,0,
0,0,0,0,0,0,0,0,0,0,0,0,0,0,0,0
</chunk>
   <chunk x="32" y="-16" width="16" height="16">
0,0,0,0,0,0,0,0,0,0,0,0,0,0,0,0,
0,0,0,0,0,0,0,0,0,0,0,0,0,0,0,0,
0,0,0,0,0,0,0,0,0,0,0,0,0,0,0,0,
0,0,0,0,0,0,0,0,0,0,0,0,0,0,0,0,
0,0,0,0,0,0,0,0,0,0,0,0,0,0,0,0,
0,0,0,0,0,0,0,0,306,307,210,308,309,0,0,0,
0,0,0,0,0,0,0,306,354,355,258,356,357,309,0,0,
210,211,210,211,210,211,210,354,355,261,0,256,356,357,308,309,
258,259,258,259,258,259,258,260,261,0,0,0,256,257,356,357,
0,0,0,0,0,0,0,0,0,0,0,0,0,0,208,209,
0,0,0,0,0,0,0,0,0,0,0,0,0,0,256,257,
0,0,0,0,0,0,0,0,0,0,0,0,0,0,0,0,
0,0,0,0,0,0,0,0,0,0,0,0,0,0,0,0,
0,0,0,0,0,0,0,0,0,0,0,0,0,0,0,0,
0,0,0,0,0,0,0,0,0,0,0,0,0,0,0,0,
0,0,0,0,0,0,0,0,0,0,0,0,0,0,0,0
</chunk>
   <chunk x="48" y="-16" width="16" height="16">
0,0,0,0,0,0,0,0,0,0,0,0,0,0,0,0,
0,0,0,0,0,0,0,0,0,0,0,0,0,0,0,0,
0,0,0,0,0,0,0,0,0,0,0,0,0,0,0,0,
0,0,0,0,0,0,0,0,0,0,0,0,0,0,0,0,
0,0,0,0,0,0,0,0,0,0,0,0,0,0,0,0,
0,0,0,0,0,0,0,0,0,0,0,0,0,0,0,0,
0,0,0,0,0,0,0,0,0,0,0,0,0,0,0,0,
0,0,0,0,0,0,0,0,0,0,0,0,0,0,0,0,
0,0,0,0,0,0,0,0,0,0,0,0,0,0,0,0,
210,211,0,0,0,0,0,0,0,0,0,0,0,0,0,0,
258,259,0,0,0,0,0,0,0,0,0,0,0,0,0,0,
0,0,0,0,0,0,0,0,0,0,0,0,0,0,0,0,
0,0,0,0,0,0,0,0,0,0,0,0,0,0,0,0,
0,0,0,0,0,0,0,0,0,0,0,0,0,0,0,0,
0,0,0,0,0,0,0,0,0,0,0,0,0,0,0,0,
0,0,0,0,0,0,0,0,0,0,0,0,0,0,0,0
</chunk>
   <chunk x="0" y="0" width="16" height="16">
18,19,18,20,21,0,0,16,17,21,0,0,16,17,21,0,
66,67,66,68,69,0,0,64,352,69,0,0,64,352,69,0,
0,0,0,116,117,0,0,112,351,117,0,0,112,351,117,0,
0,0,0,164,165,0,0,160,399,165,0,0,160,399,165,0,
0,0,0,402,403,18,19,404,402,403,18,19,404,405,403,18,
0,0,0,450,451,66,67,452,450,451,66,67,452,453,451,66,
0,0,0,0,0,0,0,0,0,0,0,0,0,0,0,0,
0,0,0,0,0,0,0,0,0,0,0,0,0,0,0,0,
0,0,0,0,0,0,0,0,0,0,0,0,0,0,0,0,
0,0,0,0,0,0,0,0,0,0,0,0,0,0,0,0,
0,0,0,0,0,0,0,0,0,0,0,0,0,0,0,0,
0,0,0,0,0,0,0,0,0,0,0,0,0,0,0,0,
0,0,0,0,0,0,0,0,0,0,0,0,0,0,0,0,
0,0,0,0,0,0,0,0,0,0,0,0,0,0,0,0,
0,0,0,0,0,0,0,0,0,0,0,0,0,0,0,0,
0,0,0,0,0,0,0,0,0,0,0,0,0,0,0,0
</chunk>
   <chunk x="16" y="0" width="16" height="16">
0,16,17,19,18,20,21,0,0,0,0,0,0,0,0,0,
0,64,65,67,66,68,69,0,0,0,0,0,0,0,0,0,
0,112,113,0,0,402,403,20,21,0,0,0,0,0,0,0,
0,160,161,0,0,450,451,68,403,19,18,19,18,19,18,19,
19,404,405,0,0,0,0,450,451,67,66,67,66,67,66,67,
67,452,453,0,0,0,0,0,0,0,0,0,0,0,0,0,
0,0,0,0,0,0,0,0,0,0,0,0,0,0,0,0,
0,0,0,0,0,0,0,0,0,0,0,0,0,0,0,0,
0,0,0,0,0,0,0,0,0,0,0,0,0,0,0,0,
0,0,0,0,0,0,0,0,0,0,0,0,0,0,0,0,
0,0,0,0,0,0,0,0,0,0,0,0,0,0,0,0,
0,0,0,0,0,0,0,0,0,0,0,0,0,0,0,0,
0,0,0,0,0,0,0,0,0,0,0,0,0,0,0,0,
0,0,0,0,0,0,0,0,0,0,0,0,0,0,0,0,
0,0,0,0,0,0,0,0,0,0,0,0,0,0,0,0,
0,0,0,0,0,0,0,0,0,0,0,0,0,0,0,0
</chunk>
   <chunk x="32" y="0" width="16" height="16">
0,0,0,0,0,0,0,0,0,0,0,0,0,0,16,17,
0,0,0,0,0,0,0,0,0,0,0,0,0,0,64,65,
0,0,0,0,0,0,0,0,0,0,0,0,16,17,404,405,
18,19,18,19,18,19,18,19,18,19,18,19,404,65,452,453,
66,67,66,67,66,67,66,67,66,67,66,67,452,453,0,0,
0,0,0,0,0,0,0,0,0,0,0,0,0,0,0,0,
0,0,0,0,0,0,0,0,0,0,0,0,0,0,0,0,
0,0,0,0,0,0,0,0,0,0,0,0,0,0,0,0,
0,0,0,0,0,0,0,0,0,0,0,0,0,0,0,0,
0,0,0,0,0,0,0,0,0,0,0,0,0,0,0,0,
0,0,0,0,0,0,0,0,0,0,0,0,0,0,0,0,
0,0,0,0,0,0,0,0,0,0,0,0,0,0,0,0,
0,0,0,0,0,0,0,0,0,0,0,0,0,0,0,0,
0,0,0,0,0,0,0,0,0,0,0,0,0,0,0,0,
0,0,0,0,0,0,0,0,0,0,0,0,0,0,0,0,
0,0,0,0,0,0,0,0,0,0,0,0,0,0,0,0
</chunk>
   <chunk x="48" y="0" width="16" height="16">
18,19,0,0,0,0,0,0,0,0,0,0,0,0,0,0,
66,67,0,0,0,0,0,0,0,0,0,0,0,0,0,0,
0,0,0,0,0,0,0,0,0,0,0,0,0,0,0,0,
0,0,0,0,0,0,0,0,0,0,0,0,0,0,0,0,
0,0,0,0,0,0,0,0,0,0,0,0,0,0,0,0,
0,0,0,0,0,0,0,0,0,0,0,0,0,0,0,0,
0,0,0,0,0,0,0,0,0,0,0,0,0,0,0,0,
0,0,0,0,0,0,0,0,0,0,0,0,0,0,0,0,
0,0,0,0,0,0,0,0,0,0,0,0,0,0,0,0,
0,0,0,0,0,0,0,0,0,0,0,0,0,0,0,0,
0,0,0,0,0,0,0,0,0,0,0,0,0,0,0,0,
0,0,0,0,0,0,0,0,0,0,0,0,0,0,0,0,
0,0,0,0,0,0,0,0,0,0,0,0,0,0,0,0,
0,0,0,0,0,0,0,0,0,0,0,0,0,0,0,0,
0,0,0,0,0,0,0,0,0,0,0,0,0,0,0,0,
0,0,0,0,0,0,0,0,0,0,0,0,0,0,0,0
</chunk>
  </data>
 </layer>
 <layer id="6" name="Flowers" width="30" height="20">
  <properties>
   <property name="layer" type="int" value="4"/>
  </properties>
  <data encoding="csv">
   <chunk x="0" y="-16" width="16" height="16">
0,0,0,0,0,0,0,0,0,0,0,0,0,0,0,0,
0,0,0,0,0,0,0,0,0,0,0,0,0,0,0,0,
0,0,0,0,0,0,0,0,0,0,0,0,0,0,0,0,
0,0,0,0,0,0,0,0,0,0,0,0,0,0,0,0,
0,0,0,0,0,0,0,0,0,0,0,0,0,0,0,0,
0,0,0,0,0,0,0,0,0,0,167,0,0,0,0,0,
0,0,0,0,0,0,0,0,0,0,0,0,0,0,0,0,
0,0,0,0,0,0,0,0,0,0,0,0,0,0,0,0,
0,0,0,0,0,119,0,0,0,0,0,0,0,0,119,0,
0,0,0,0,0,0,0,0,0,0,0,0,0,0,0,0,
119,0,0,119,0,0,0,0,0,0,0,0,0,0,0,0,
0,0,0,0,0,0,0,0,0,0,0,0,0,0,0,0,
0,0,0,0,0,0,0,0,0,0,0,0,0,0,0,0,
0,0,0,0,0,0,0,0,0,0,0,0,0,0,0,0,
0,0,118,0,0,0,0,0,0,0,0,0,0,0,0,0,
0,0,0,167,0,0,0,0,0,0,0,0,0,0,0,0
</chunk>
   <chunk x="16" y="-16" width="16" height="16">
0,0,0,0,0,0,0,0,0,0,0,0,0,0,0,0,
0,0,0,0,0,0,0,0,0,0,0,0,0,0,0,0,
0,0,0,0,0,0,0,0,0,0,0,0,0,0,0,0,
0,0,0,0,0,0,0,0,0,0,0,0,0,0,0,0,
0,0,0,0,0,0,0,0,0,0,0,0,0,0,0,0,
0,0,0,0,0,0,0,0,0,0,0,0,0,0,0,0,
0,0,0,0,0,0,0,0,0,0,167,0,0,0,0,0,
0,0,0,0,0,0,0,0,0,0,0,0,0,0,0,0,
0,0,0,0,0,0,0,119,0,0,0,0,0,167,0,167,
167,0,0,0,0,0,0,119,0,0,0,0,0,0,0,0,
0,0,0,167,0,0,0,0,0,0,0,0,0,0,0,0,
0,0,0,0,0,0,0,0,0,0,0,0,0,0,0,0,
0,0,0,0,0,0,0,0,0,0,0,0,0,0,0,0,
0,0,0,0,0,0,0,0,0,0,0,0,0,0,0,0,
0,0,118,0,0,0,0,0,0,0,0,0,0,0,0,0,
0,0,0,0,0,0,0,0,0,0,0,0,0,0,0,0
</chunk>
   <chunk x="32" y="-16" width="16" height="16">
0,0,0,0,0,0,0,0,0,0,0,0,0,0,0,0,
0,0,0,0,0,0,0,0,0,0,0,0,0,0,0,0,
0,0,0,0,0,0,0,0,0,0,0,0,0,0,0,0,
0,0,0,0,0,0,0,0,0,0,0,0,0,0,0,0,
0,0,0,0,0,0,0,0,0,0,0,0,0,0,0,0,
0,0,0,0,0,0,0,0,0,0,0,0,0,0,0,0,
0,0,0,0,0,0,0,0,0,0,119,0,0,0,0,0,
0,0,0,0,0,0,0,0,0,0,0,0,0,0,0,0,
0,0,0,167,0,0,167,0,0,0,0,0,0,119,0,0,
0,0,0,0,0,0,0,0,0,0,0,0,0,0,0,0,
0,0,0,0,0,0,0,0,0,0,0,0,0,0,0,119,
0,0,0,0,0,0,0,0,0,0,0,0,0,0,0,0,
0,0,0,0,0,0,0,0,0,0,0,0,0,0,0,0,
0,0,0,0,0,0,0,0,0,0,0,0,0,0,0,0,
0,0,0,0,0,0,0,0,0,0,0,0,0,0,0,0,
0,0,0,0,0,0,0,0,0,0,0,0,0,0,0,0
</chunk>
   <chunk x="48" y="-16" width="16" height="16">
0,0,0,0,0,0,0,0,0,0,0,0,0,0,0,0,
0,0,0,0,0,0,0,0,0,0,0,0,0,0,0,0,
0,0,0,0,0,0,0,0,0,0,0,0,0,0,0,0,
0,0,0,0,0,0,0,0,0,0,0,0,0,0,0,0,
0,0,0,0,0,0,0,0,0,0,0,0,0,0,0,0,
0,0,0,0,0,0,0,0,0,0,0,0,0,0,0,0,
0,0,0,0,0,0,0,0,0,0,0,0,0,0,0,0,
0,0,0,0,0,0,0,0,0,0,0,0,0,0,0,0,
0,0,0,0,0,0,0,0,0,0,0,0,0,0,0,0,
0,0,0,0,0,0,0,0,0,0,0,0,0,0,0,0,
0,119,0,0,0,0,0,0,0,0,0,0,0,0,0,0,
0,0,0,0,0,0,0,0,0,0,0,0,0,0,0,0,
0,0,0,0,0,0,0,0,0,0,0,0,0,0,0,0,
0,0,0,0,0,0,0,0,0,0,0,0,0,0,0,0,
0,0,0,0,0,0,0,0,0,0,0,0,0,0,0,0,
0,0,0,0,0,0,0,0,0,0,0,0,0,0,0,0
</chunk>
   <chunk x="0" y="0" width="16" height="16">
0,0,118,0,0,0,0,0,0,0,0,0,0,118,0,0,
0,0,0,0,0,0,0,0,0,0,0,0,0,0,0,0,
0,0,0,0,23,0,0,0,0,71,0,0,0,0,0,0,
0,0,0,0,0,0,0,0,0,0,0,0,0,0,0,0,
0,0,0,0,0,0,118,0,0,0,166,0,0,0,0,0,
0,0,0,0,0,0,0,0,0,0,0,0,0,0,0,0,
0,0,0,0,0,0,0,0,0,0,0,0,0,0,0,0,
0,0,0,0,0,0,0,0,0,0,0,0,0,0,0,0,
0,0,0,0,0,0,0,0,0,0,0,0,0,0,0,0,
0,0,0,0,0,0,0,0,0,0,0,0,0,0,0,0,
0,0,0,0,0,0,0,0,0,0,0,0,0,0,0,0,
0,0,0,0,0,0,0,0,0,0,0,0,0,0,0,0,
0,0,0,0,0,0,0,0,0,0,0,0,0,0,0,0,
0,0,0,0,0,0,0,0,0,0,0,0,0,0,0,0,
0,0,0,0,0,0,0,0,0,0,0,0,0,0,0,0,
0,0,0,0,0,0,0,0,0,0,0,0,0,0,0,0
</chunk>
   <chunk x="16" y="0" width="16" height="16">
0,0,0,118,0,0,0,118,0,0,0,0,0,0,0,0,
0,0,0,0,0,0,0,0,0,0,0,0,0,0,0,0,
0,22,0,0,0,0,0,118,0,0,0,0,0,0,0,0,
0,0,0,0,0,0,0,0,0,0,0,0,166,0,0,0,
166,0,0,0,0,0,0,0,0,0,0,0,0,0,0,0,
0,0,0,0,0,0,0,0,0,0,0,0,0,0,0,0,
0,0,0,0,0,0,0,0,0,0,0,0,0,0,0,0,
0,0,0,0,0,0,0,0,0,0,0,0,0,0,0,0,
0,0,0,0,0,0,0,0,0,0,0,0,0,0,0,0,
0,0,0,0,0,0,0,0,0,0,0,0,0,0,0,0,
0,0,0,0,0,0,0,0,0,0,0,0,0,0,0,0,
0,0,0,0,0,0,0,0,0,0,0,0,0,0,0,0,
0,0,0,0,0,0,0,0,0,0,0,0,0,0,0,0,
0,0,0,0,0,0,0,0,0,0,0,0,0,0,0,0,
0,0,0,0,0,0,0,0,0,0,0,0,0,0,0,0,
0,0,0,0,0,0,0,0,0,0,0,0,0,0,0,0
</chunk>
   <chunk x="32" y="0" width="16" height="16">
0,0,0,0,0,0,0,0,0,0,0,0,0,118,0,0,
0,166,0,0,0,0,0,118,0,0,0,0,0,0,0,0,
0,0,0,0,0,0,0,0,0,0,0,0,0,118,0,0,
0,118,0,0,0,0,118,0,0,0,0,166,0,0,0,0,
0,0,0,0,0,0,0,0,0,0,0,0,0,0,0,0,
0,0,0,0,0,0,0,0,0,0,0,0,0,0,0,0,
0,0,0,0,0,0,0,0,0,0,0,0,0,0,0,0,
0,0,0,0,0,0,0,0,0,0,0,0,0,0,0,0,
0,0,0,0,0,0,0,0,0,0,0,0,0,0,0,0,
0,0,0,0,0,0,0,0,0,0,0,0,0,0,0,0,
0,0,0,0,0,0,0,0,0,0,0,0,0,0,0,0,
0,0,0,0,0,0,0,0,0,0,0,0,0,0,0,0,
0,0,0,0,0,0,0,0,0,0,0,0,0,0,0,0,
0,0,0,0,0,0,0,0,0,0,0,0,0,0,0,0,
0,0,0,0,0,0,0,0,0,0,0,0,0,0,0,0,
0,0,0,0,0,0,0,0,0,0,0,0,0,0,0,0
</chunk>
   <chunk x="48" y="0" width="16" height="16">
166,0,0,0,0,0,0,0,0,0,0,0,0,0,0,0,
0,0,0,0,0,0,0,0,0,0,0,0,0,0,0,0,
0,0,0,0,0,0,0,0,0,0,0,0,0,0,0,0,
0,0,0,0,0,0,0,0,0,0,0,0,0,0,0,0,
0,0,0,0,0,0,0,0,0,0,0,0,0,0,0,0,
0,0,0,0,0,0,0,0,0,0,0,0,0,0,0,0,
0,0,0,0,0,0,0,0,0,0,0,0,0,0,0,0,
0,0,0,0,0,0,0,0,0,0,0,0,0,0,0,0,
0,0,0,0,0,0,0,0,0,0,0,0,0,0,0,0,
0,0,0,0,0,0,0,0,0,0,0,0,0,0,0,0,
0,0,0,0,0,0,0,0,0,0,0,0,0,0,0,0,
0,0,0,0,0,0,0,0,0,0,0,0,0,0,0,0,
0,0,0,0,0,0,0,0,0,0,0,0,0,0,0,0,
0,0,0,0,0,0,0,0,0,0,0,0,0,0,0,0,
0,0,0,0,0,0,0,0,0,0,0,0,0,0,0,0,
0,0,0,0,0,0,0,0,0,0,0,0,0,0,0,0
</chunk>
  </data>
 </layer>
 <objectgroup id="3" name="Node" visible="0">
  <object id="117" name="@" x="-16" y="-80" width="16" height="80">
   <properties>
    <property name="scene" value="Gardens5"/>
    <property name="target" value="door_4"/>
   </properties>
  </object>
  <object id="118" name="door_1" type="+" x="24" y="-16">
   <point/>
  </object>
  <object id="120" name="*" x="80" y="56" width="32" height="8"/>
  <object id="122" name="*" x="160" y="56" width="32" height="8"/>
  <object id="123" name="*" x="240" y="56" width="32" height="8"/>
  <object id="124" x="-48" y="-192" width="848" height="288"/>
  <object id="125" type="_" x="0" y="-16" width="80" height="16"/>
  <object id="128" type="_" x="272" y="-16" width="96" height="16"/>
  <object id="129" type="_" x="736" y="-16" width="64" height="16"/>
 </objectgroup>
 <objectgroup id="2" name="Collision" visible="0">
  <properties>
   <property name="collision" type="bool" value="true"/>
  </properties>
  <object id="70" x="-48" y="0" width="128" height="16"/>
  <object id="71" x="64" y="16" width="16" height="64"/>
  <object id="73" x="80" y="64" width="32" height="16"/>
  <object id="74" x="112" y="0" width="16" height="80"/>
  <object id="75" x="128" y="0" width="32" height="16"/>
  <object id="76" x="144" y="16" width="16" height="64"/>
  <object id="77" x="160" y="64" width="48" height="16"/>
  <object id="78" x="192" y="0" width="16" height="64"/>
  <object id="79" x="208" y="0" width="32" height="16"/>
  <object id="80" x="224" y="16" width="16" height="64"/>
  <object id="81" x="240" y="64" width="32" height="16"/>
  <object id="82" x="272" y="0" width="16" height="80"/>
  <object id="83" x="288" y="0" width="80" height="16"/>
  <object id="84" x="352" y="16" width="16" height="32"/>
  <object id="85" x="368" y="32" width="32" height="16"/>
  <object id="86" x="384" y="48" width="336" height="16"/>
  <object id="87" x="704" y="32" width="48" height="16"/>
  <object id="88" x="736" y="0" width="16" height="32"/>
  <object id="89" x="752" y="0" width="96" height="16"/>
  <object id="90" x="736" y="-96" width="112" height="16"/>
  <object id="91" x="736" y="-128" width="16" height="32"/>
  <object id="92" x="704" y="-128" width="32" height="16"/>
  <object id="93" x="688" y="-144" width="32" height="16"/>
  <object id="94" x="656" y="-160" width="48" height="16"/>
  <object id="96" x="640" y="-144" width="32" height="16"/>
  <object id="97" x="448" y="-128" width="208" height="16"/>
  <object id="99" x="432" y="-144" width="32" height="16"/>
  <object id="100" x="400" y="-160" width="48" height="16"/>
  <object id="101" x="384" y="-144" width="32" height="16"/>
  <object id="102" x="352" y="-128" width="48" height="16"/>
  <object id="103" x="352" y="-112" width="16" height="32"/>
  <object id="104" x="272" y="-96" width="80" height="16"/>
  <object id="105" x="272" y="-128" width="16" height="32"/>
  <object id="106" x="208" y="-128" width="64" height="16"/>
  <object id="107" x="208" y="-160" width="16" height="32"/>
  <object id="108" x="192" y="-176" width="16" height="32"/>
  <object id="109" x="144" y="-176" width="48" height="16"/>
  <object id="110" x="128" y="-160" width="32" height="16"/>
  <object id="111" x="128" y="-144" width="16" height="32"/>
  <object id="112" x="64" y="-128" width="64" height="16"/>
  <object id="113" x="64" y="-112" width="16" height="32"/>
  <object id="114" x="-48" y="-96" width="112" height="16"/>
  <object id="115" x="-48" y="-80" width="16" height="80"/>
  <object id="116" x="832" y="-80" width="16" height="80"/>
 </objectgroup>
</map>
