<?xml version="1.0" encoding="UTF-8"?>
<map version="1.10" tiledversion="1.12.1" orientation="orthogonal" renderorder="right-down" width="30" height="20" tilewidth="16" tileheight="16" infinite="1" nextlayerid="5" nextobjectid="35">
 <tileset firstgid="1" source="../Atlas.tsx"/>
 <layer id="1" name="Main" width="30" height="20">
  <data encoding="csv">
   <chunk x="-48" y="-32" width="16" height="16">
0,536,536,536,536,536,536,536,536,536,536,536,536,536,536,536,
0,536,536,536,536,536,536,536,536,536,536,536,536,536,536,536,
0,536,536,536,536,536,536,536,536,536,536,536,536,536,536,536,
0,536,536,536,536,536,536,536,536,536,536,536,536,536,536,536,
0,536,536,536,536,536,536,536,536,536,536,536,536,536,536,536,
0,536,536,536,536,536,536,536,536,536,536,536,536,536,536,536,
0,536,536,536,536,536,536,536,536,536,536,536,536,536,536,536,
0,536,536,536,536,536,536,536,536,536,536,536,536,536,536,536,
0,536,536,536,536,536,536,536,536,536,536,536,536,536,536,536,
0,536,536,536,536,536,536,536,536,536,536,536,536,536,536,536,
0,536,536,536,536,536,536,536,536,536,536,536,536,536,536,536,
0,536,536,536,536,536,536,536,536,536,536,536,536,536,536,536,
0,536,536,536,536,536,536,536,536,536,536,536,536,536,536,536,
0,536,536,536,536,536,536,536,536,536,536,536,536,536,536,536,
0,536,536,536,536,536,536,536,536,536,536,536,536,536,536,536,
0,536,536,536,536,536,536,536,536,536,536,536,536,536,536,536
</chunk>
   <chunk x="-32" y="-32" width="16" height="16">
536,536,536,536,536,536,536,536,536,536,536,536,536,536,536,536,
536,536,536,536,536,536,536,536,536,536,536,536,536,536,536,536,
536,536,536,536,536,536,536,536,536,536,536,536,536,536,536,536,
536,536,536,536,536,536,536,536,536,536,536,536,536,536,539,560,
536,536,536,536,536,536,536,536,536,536,536,536,536,536,536,537,
536,536,536,536,536,536,536,536,536,536,536,536,536,536,536,537,
536,536,536,536,536,536,536,536,536,536,536,536,536,536,536,537,
536,536,536,536,536,536,536,536,536,536,536,536,536,536,536,537,
536,536,536,536,536,536,536,536,536,536,536,536,536,536,536,537,
536,536,536,536,536,536,536,536,536,536,536,536,536,536,536,537,
536,536,536,536,536,536,536,536,536,536,536,536,536,536,536,537,
536,536,536,536,536,536,536,536,536,536,536,536,536,536,536,537,
536,536,536,536,536,536,536,536,536,536,536,536,536,536,536,537,
536,536,536,536,536,536,536,536,536,536,536,536,536,536,536,537,
536,536,536,536,536,536,536,536,536,536,536,536,536,536,536,537,
536,536,536,536,536,536,536,536,536,536,536,536,536,536,536,537
</chunk>
   <chunk x="-16" y="-32" width="16" height="16">
536,536,536,536,536,536,536,536,536,536,536,536,536,536,536,536,
536,536,536,536,536,536,536,536,536,536,536,536,536,536,536,536,
536,536,536,536,536,536,536,536,536,536,536,536,536,536,536,536,
560,560,560,560,560,560,560,560,560,560,560,560,560,560,560,560,
0,0,0,0,0,0,0,0,0,0,0,0,0,0,0,0,
0,0,0,0,0,0,0,0,0,0,0,0,0,0,0,0,
0,0,0,0,0,0,0,0,0,0,0,0,0,0,0,0,
0,0,0,0,0,0,0,0,0,0,0,0,0,0,0,0,
0,0,0,0,0,0,0,0,0,0,0,0,0,0,0,0,
0,0,0,0,0,0,0,0,0,0,0,0,0,0,0,0,
0,0,0,0,0,0,0,0,0,0,0,0,0,0,0,0,
0,0,0,0,0,0,0,0,0,0,0,0,0,0,0,0,
0,0,0,0,0,0,0,0,0,0,0,0,0,0,0,0,
0,0,0,0,0,0,0,0,0,0,0,0,0,0,0,0,
0,0,0,0,0,0,0,0,0,0,0,0,0,0,0,0,
0,0,0,0,0,0,0,0,0,0,0,0,0,0,0,0
</chunk>
   <chunk x="0" y="-32" width="16" height="16">
536,536,536,536,536,536,536,536,536,536,536,536,536,536,536,536,
536,536,536,536,536,536,536,536,536,536,536,536,536,536,536,536,
536,536,536,536,536,536,536,536,536,536,536,536,536,536,536,536,
560,560,560,560,560,560,560,560,560,560,540,536,536,536,536,536,
0,0,0,0,0,0,0,0,0,535,536,536,536,536,536,536,
0,0,0,0,0,0,0,0,0,535,536,536,536,536,536,536,
0,0,0,0,0,0,0,0,0,535,536,536,536,536,536,536,
0,0,0,0,0,0,0,0,0,559,560,560,560,560,560,560,
0,0,0,0,0,0,0,0,0,0,0,0,0,0,0,0,
0,0,0,0,0,0,0,0,0,0,0,0,0,0,0,0,
0,0,0,0,0,0,0,0,0,0,0,0,0,0,0,0,
0,0,0,0,0,0,0,0,0,0,0,0,0,0,0,0,
0,0,0,0,0,0,0,0,0,0,0,0,0,0,0,0,
0,0,0,0,0,0,0,0,0,511,512,512,512,512,512,512,
0,0,0,0,257,258,258,258,258,535,536,536,536,536,536,536,
0,0,0,0,255,0,0,0,0,535,536,536,536,536,536,536
</chunk>
   <chunk x="16" y="-32" width="16" height="16">
536,536,536,536,536,536,536,536,536,536,536,536,536,536,536,536,
536,536,536,536,536,536,536,536,536,536,536,536,536,536,536,536,
536,536,536,536,536,536,536,536,536,536,536,536,536,536,536,536,
536,536,536,536,536,536,536,536,536,536,536,536,536,536,536,536,
536,536,536,536,536,536,536,536,536,536,536,536,536,536,536,536,
536,536,536,536,536,536,536,536,536,536,536,536,536,536,536,536,
536,536,536,536,536,536,536,536,536,536,536,536,536,536,536,536,
560,560,560,560,560,560,560,560,560,560,560,560,560,536,536,536,
0,0,0,0,536,536,536,536,536,536,536,0,0,536,536,536,
0,0,0,0,536,536,536,536,536,536,536,536,536,536,536,536,
0,0,0,0,536,536,536,536,536,536,536,536,536,536,536,536,
0,0,0,0,536,536,536,536,536,536,536,536,536,536,536,536,
0,0,0,0,536,536,536,536,536,536,536,536,536,536,536,536,
512,512,512,512,512,512,512,512,512,512,512,512,512,536,536,536,
536,536,536,536,536,536,536,536,536,536,536,536,0,0,536,536,
536,536,536,536,536,536,536,536,536,536,536,536,536,536,536,536
</chunk>
   <chunk x="32" y="-32" width="16" height="16">
536,536,536,536,536,536,536,536,0,0,0,0,0,0,0,0,
536,536,536,536,536,536,536,536,0,0,0,0,0,0,0,0,
536,536,536,536,536,536,536,536,0,0,0,0,0,0,0,0,
536,536,536,536,536,536,536,536,0,0,0,0,0,0,0,0,
536,536,536,536,536,536,536,536,0,0,0,0,0,0,0,0,
536,536,536,536,536,536,536,536,0,0,0,0,0,0,0,0,
536,536,536,536,536,536,536,536,0,0,0,0,0,0,0,0,
536,536,536,536,536,536,536,536,0,0,0,0,0,0,0,0,
536,536,536,536,536,536,536,536,0,0,0,0,0,0,0,0,
536,536,536,536,536,536,536,536,0,0,0,0,0,0,0,0,
536,536,536,536,536,536,536,536,0,0,0,0,0,0,0,0,
536,536,536,536,536,536,536,536,0,0,0,0,0,0,0,0,
536,536,536,536,536,536,536,536,0,0,0,0,0,0,0,0,
536,536,536,536,536,536,536,536,0,0,0,0,0,0,0,0,
536,536,536,536,536,536,536,536,0,0,0,0,0,0,0,0,
536,536,536,536,536,536,536,536,0,0,0,0,0,0,0,0
</chunk>
   <chunk x="-48" y="-16" width="16" height="16">
0,536,536,536,536,536,536,536,536,536,536,536,536,536,536,536,
0,536,536,536,536,536,536,536,536,536,536,536,536,536,536,536,
0,536,536,536,536,536,536,536,536,536,536,536,536,536,536,536,
0,536,536,536,536,536,536,536,536,536,536,536,536,536,536,536,
0,536,536,536,536,536,536,536,536,536,536,536,536,536,536,536,
0,536,536,536,536,536,536,536,536,536,536,536,536,536,536,536,
0,536,536,536,536,536,536,536,536,536,536,536,536,536,536,536,
0,536,536,536,536,536,536,536,536,536,536,536,536,536,536,536,
0,536,536,536,536,536,536,536,536,536,536,536,536,536,536,536,
0,536,536,536,536,536,536,536,536,536,536,536,536,536,536,536,
0,536,536,536,536,536,536,536,536,536,536,536,536,536,536,536,
0,536,536,536,536,536,536,536,536,536,536,536,536,536,536,536,
0,536,536,536,536,536,536,536,536,536,536,536,536,536,536,536,
0,536,536,536,536,536,536,536,536,536,536,536,536,536,536,536,
0,536,536,536,536,536,536,536,536,536,536,536,536,536,536,536,
0,536,536,536,536,536,536,536,536,536,536,536,536,536,536,536
</chunk>
   <chunk x="-32" y="-16" width="16" height="16">
536,536,536,536,536,536,536,536,536,536,536,536,536,536,536,537,
536,536,536,536,536,536,536,536,536,536,536,536,536,536,536,537,
536,536,536,536,536,536,536,536,536,536,536,536,536,536,536,537,
536,536,536,536,536,536,536,536,536,536,536,536,536,536,536,537,
536,536,536,536,536,536,536,536,536,536,536,536,536,536,536,537,
536,536,536,536,536,536,536,536,536,536,536,536,536,536,536,537,
536,536,536,536,536,536,536,536,536,536,536,536,536,536,536,537,
536,536,536,536,536,536,536,536,536,536,536,536,536,536,536,537,
536,536,536,536,536,536,536,536,536,536,536,536,536,536,536,537,
536,536,536,536,536,536,536,536,536,536,536,536,536,536,536,537,
536,536,536,536,536,536,536,536,536,536,536,536,536,536,536,537,
536,536,536,536,536,536,536,536,536,536,536,536,536,536,536,537,
536,536,536,536,536,536,536,536,536,536,536,536,536,536,536,537,
536,536,536,536,536,536,536,536,536,536,536,536,536,536,536,537,
536,536,536,536,536,536,536,536,536,536,536,536,536,536,536,537,
536,536,536,536,536,536,536,536,536,536,536,536,536,536,536,537
</chunk>
   <chunk x="-16" y="-16" width="16" height="16">
0,0,0,0,0,0,0,0,0,0,257,258,258,258,258,258,
0,0,0,0,0,0,0,0,0,0,256,0,0,0,0,0,
0,0,0,0,0,0,0,0,0,0,255,0,0,0,0,0,
0,0,0,0,0,0,0,0,0,0,256,0,0,0,0,0,
0,0,0,0,0,0,257,258,258,258,258,261,0,0,0,0,
0,0,0,0,0,0,255,0,0,0,0,255,0,0,0,0,
0,0,0,0,0,0,256,0,0,0,0,255,0,0,0,0,
0,0,0,0,0,0,255,0,0,0,0,256,0,0,0,0,
0,0,257,258,258,258,258,258,261,0,0,255,0,0,0,0,
0,0,255,0,0,0,0,0,256,0,0,255,0,0,0,0,
0,0,256,0,0,0,0,0,255,0,0,256,0,0,0,0,
0,0,255,0,0,0,0,0,255,0,0,255,0,0,0,0,
0,0,256,0,0,0,0,0,256,0,0,257,258,258,258,258,
0,0,255,0,0,0,0,0,255,0,0,255,0,0,0,0,
0,0,257,258,258,258,258,261,255,0,0,256,0,0,0,0,
0,0,255,0,0,0,0,255,255,0,0,255,0,0,0,0
</chunk>
   <chunk x="0" y="-16" width="16" height="16">
261,0,0,0,255,0,0,0,0,535,536,536,536,536,536,536,
255,0,0,0,256,0,0,0,0,535,536,536,536,536,536,536,
256,0,0,0,255,0,0,0,0,535,536,536,536,536,536,536,
255,0,0,0,255,0,0,0,0,535,536,536,536,536,536,536,
256,0,0,0,256,0,0,0,0,535,536,536,536,536,536,536,
255,0,0,0,255,0,0,0,0,535,536,536,536,536,536,536,
255,0,0,0,256,0,0,0,0,535,536,536,536,536,536,536,
256,0,0,0,255,0,0,0,0,535,536,536,536,536,536,536,
255,0,0,0,255,0,0,0,0,535,536,536,536,536,536,536,
255,0,0,0,255,0,0,0,0,535,536,536,536,536,536,536,
256,0,0,0,255,0,0,0,0,535,536,536,536,536,536,536,
255,0,0,0,256,0,0,0,0,535,536,536,536,536,536,536,
258,258,261,0,255,0,0,0,0,535,536,536,536,536,536,536,
0,0,255,0,255,0,0,0,0,535,536,536,536,536,536,536,
0,0,255,0,256,0,0,0,0,535,536,536,536,536,536,536,
0,0,256,0,255,0,0,0,0,535,536,536,536,536,536,536
</chunk>
   <chunk x="16" y="-16" width="16" height="16">
536,536,536,536,536,536,536,536,536,536,536,536,536,536,536,536,
536,536,536,536,536,536,536,536,536,536,536,536,536,536,536,536,
536,536,536,536,536,536,536,536,536,536,536,536,536,536,536,536,
536,536,536,536,536,536,536,536,536,536,536,536,536,536,536,536,
536,536,536,536,536,536,536,536,536,536,536,536,536,536,536,536,
536,536,536,536,536,536,536,536,536,536,536,536,536,536,536,536,
536,536,536,536,536,536,536,536,536,536,536,536,536,536,536,536,
536,536,536,536,536,536,536,536,536,536,536,536,536,536,536,536,
536,536,536,536,536,536,536,536,536,536,536,536,536,536,536,536,
536,536,536,536,536,536,536,536,536,536,536,536,536,536,536,536,
536,536,536,536,536,536,536,536,536,536,536,536,536,536,536,536,
536,536,536,536,536,536,536,536,536,536,536,536,536,536,536,536,
536,536,536,536,536,536,536,536,536,536,536,536,536,536,536,536,
536,536,536,536,536,536,536,536,536,536,536,536,536,536,536,536,
536,536,536,536,536,536,536,536,536,536,536,536,536,536,536,536,
536,536,536,536,536,536,536,536,536,536,536,536,536,536,536,536
</chunk>
   <chunk x="32" y="-16" width="16" height="16">
536,536,536,536,536,536,536,536,0,0,0,0,0,0,0,0,
536,536,536,536,536,536,536,536,0,0,0,0,0,0,0,0,
536,536,536,536,536,536,536,536,0,0,0,0,0,0,0,0,
536,536,536,536,536,536,536,536,0,0,0,0,0,0,0,0,
536,536,536,536,536,536,536,536,0,0,0,0,0,0,0,0,
536,536,536,536,536,536,536,536,0,0,0,0,0,0,0,0,
536,536,536,536,536,536,536,536,0,0,0,0,0,0,0,0,
536,536,536,536,536,536,536,536,0,0,0,0,0,0,0,0,
536,536,536,536,536,536,536,536,0,0,0,0,0,0,0,0,
536,536,536,536,536,536,536,536,0,0,0,0,0,0,0,0,
536,536,536,536,536,536,536,536,0,0,0,0,0,0,0,0,
536,536,536,536,536,536,536,536,0,0,0,0,0,0,0,0,
536,536,536,536,536,536,536,536,0,0,0,0,0,0,0,0,
536,536,536,536,536,536,536,536,0,0,0,0,0,0,0,0,
536,536,536,536,536,536,536,536,0,0,0,0,0,0,0,0,
536,536,536,536,536,536,536,536,0,0,0,0,0,0,0,0
</chunk>
   <chunk x="-48" y="0" width="16" height="16">
0,536,536,536,536,536,536,536,536,536,536,536,536,536,536,536,
0,536,536,536,536,536,536,536,536,536,536,536,536,536,536,536,
0,536,536,536,536,536,536,536,536,536,536,536,536,536,536,536,
0,536,536,536,536,536,536,536,536,536,536,536,536,536,536,536,
0,536,536,536,536,536,536,536,536,536,536,536,536,536,536,536,
0,536,536,536,536,536,536,536,536,536,536,536,536,536,536,536,
0,536,536,536,536,536,536,536,536,536,536,536,536,536,536,536,
0,536,536,536,536,536,536,536,536,536,536,536,536,536,536,536,
0,536,536,536,536,536,536,536,536,536,536,536,536,536,536,536,
0,536,536,536,536,536,536,536,536,536,536,536,536,536,536,536,
0,536,536,536,536,536,536,536,536,536,536,536,536,536,536,536,
0,536,536,536,536,536,536,536,536,536,536,536,536,536,536,536,
0,536,536,536,536,536,536,536,536,536,536,536,536,536,536,536,
0,536,536,536,536,536,536,536,536,536,536,536,536,536,536,536,
0,536,536,536,536,536,536,536,536,536,536,536,536,536,536,536,
0,536,536,536,536,536,536,536,536,536,536,536,536,536,536,536
</chunk>
   <chunk x="-32" y="0" width="16" height="16">
536,536,536,536,536,536,536,536,536,536,536,536,536,536,536,537,
536,536,536,536,536,536,536,536,536,536,536,536,536,536,536,537,
536,536,536,536,536,536,536,536,536,536,536,536,536,536,563,512,
536,536,536,536,536,536,536,536,536,536,536,536,536,536,536,536,
536,536,536,536,536,536,536,536,536,536,536,536,536,536,536,536,
536,536,536,536,536,536,536,536,536,536,536,536,536,536,536,536,
536,536,536,536,536,536,536,536,536,536,536,536,536,536,536,536,
536,536,536,536,536,536,536,536,536,536,536,536,536,536,536,536,
536,536,536,536,536,536,536,536,536,536,536,536,536,536,536,536,
536,536,536,536,536,536,536,536,536,536,536,536,536,536,536,536,
536,536,536,536,536,536,536,536,536,536,536,536,536,536,536,536,
536,536,536,536,536,536,536,536,536,536,536,536,536,536,536,536,
536,536,536,536,536,536,536,536,536,536,536,536,536,536,536,536,
536,536,536,536,536,536,536,536,536,536,536,536,536,536,536,536,
536,536,536,536,536,536,536,536,536,536,536,536,536,536,536,536,
536,536,536,536,536,536,536,536,536,536,536,536,536,536,536,536
</chunk>
   <chunk x="-16" y="0" width="16" height="16">
0,0,255,0,0,0,0,256,256,0,0,255,0,0,0,0,
0,0,256,0,0,0,0,255,255,0,0,256,0,0,0,0,
512,512,512,512,512,512,512,512,512,512,512,512,512,512,512,512,
536,536,536,536,536,536,536,536,536,536,536,536,536,536,536,536,
536,536,536,536,536,536,536,536,536,536,536,536,536,536,536,536,
536,536,536,536,536,536,536,536,536,536,536,536,536,536,536,536,
536,536,536,536,536,536,536,536,536,536,536,536,536,536,536,536,
536,536,536,536,536,536,536,536,536,536,536,536,536,536,536,536,
536,536,536,536,536,536,536,536,536,536,536,536,536,536,536,536,
536,536,536,536,536,536,536,536,536,536,536,536,536,536,536,536,
536,536,536,536,536,536,536,536,536,536,536,536,536,536,536,536,
536,536,536,536,536,536,536,536,536,536,536,536,536,536,536,536,
536,536,536,536,536,536,536,536,536,536,536,536,536,536,536,536,
536,536,536,536,536,536,536,536,536,536,536,536,536,536,536,536,
536,536,536,536,536,536,536,536,536,536,536,536,536,536,536,536,
536,536,536,536,536,536,536,536,536,536,536,536,536,536,536,536
</chunk>
   <chunk x="0" y="0" width="16" height="16">
0,0,255,0,255,0,0,0,0,535,536,536,536,536,536,536,
0,0,255,0,255,0,0,0,0,535,536,536,536,536,536,536,
512,512,512,512,512,512,512,512,512,512,564,536,536,536,536,536,
536,536,536,536,536,536,536,536,536,536,536,536,536,536,536,536,
536,536,536,536,536,536,536,536,536,536,536,536,536,536,536,536,
536,536,536,536,536,536,536,536,536,536,536,536,536,536,536,536,
536,536,536,536,536,536,536,536,536,536,536,536,536,536,536,536,
536,536,536,536,536,536,536,536,536,536,536,536,536,536,536,536,
536,536,536,536,536,536,536,536,536,536,536,536,536,536,536,536,
536,536,536,536,536,536,536,536,536,536,536,536,536,536,536,536,
536,536,536,536,536,536,536,536,536,536,536,536,536,536,536,536,
536,536,536,536,536,536,536,536,536,536,536,536,536,536,536,536,
536,536,536,536,536,536,536,536,536,536,536,536,536,536,536,536,
536,536,536,536,536,536,536,536,536,536,536,536,536,536,536,536,
536,536,536,536,536,536,536,536,536,536,536,536,536,536,536,536,
536,536,536,536,536,536,536,536,536,536,536,536,536,536,536,536
</chunk>
   <chunk x="16" y="0" width="16" height="16">
536,536,536,536,536,536,536,536,536,536,536,536,536,536,536,536,
536,536,536,536,536,536,536,536,536,536,536,536,536,536,536,536,
536,536,536,536,536,536,536,536,536,536,536,536,536,536,536,536,
536,536,536,536,536,536,536,536,536,536,536,536,536,536,536,536,
536,536,536,536,536,536,536,536,536,536,536,536,536,536,536,536,
536,536,536,536,536,536,536,536,536,536,536,536,536,536,536,536,
536,536,536,536,536,536,536,536,536,536,536,536,536,536,536,536,
536,536,536,536,536,536,536,536,536,536,536,536,536,536,536,536,
536,536,536,536,536,536,536,536,536,536,536,536,536,536,536,536,
536,536,536,536,536,536,536,536,536,536,536,536,536,536,536,536,
536,536,536,536,536,536,536,536,536,536,536,536,536,536,536,536,
536,536,536,536,536,536,536,536,536,536,536,536,536,536,536,536,
536,536,536,536,536,536,536,536,536,536,536,536,536,536,536,536,
536,536,536,536,536,536,536,536,536,536,536,536,536,536,536,536,
536,536,536,536,536,536,536,536,536,536,536,536,536,536,536,536,
536,536,536,536,536,536,536,536,536,536,536,536,536,536,536,536
</chunk>
   <chunk x="32" y="0" width="16" height="16">
536,536,536,536,536,536,536,536,0,0,0,0,0,0,0,0,
536,536,536,536,536,536,536,536,0,0,0,0,0,0,0,0,
536,536,536,536,536,536,536,536,0,0,0,0,0,0,0,0,
536,536,536,536,536,536,536,536,0,0,0,0,0,0,0,0,
536,536,536,536,536,536,536,536,0,0,0,0,0,0,0,0,
536,536,536,536,536,536,536,536,0,0,0,0,0,0,0,0,
536,536,536,536,536,536,536,536,0,0,0,0,0,0,0,0,
536,536,536,536,536,536,536,536,0,0,0,0,0,0,0,0,
536,536,536,536,536,536,536,536,0,0,0,0,0,0,0,0,
536,536,536,536,536,536,536,536,0,0,0,0,0,0,0,0,
536,536,536,536,536,536,536,536,0,0,0,0,0,0,0,0,
536,536,536,536,536,536,536,536,0,0,0,0,0,0,0,0,
536,536,536,536,536,536,536,536,0,0,0,0,0,0,0,0,
536,536,536,536,536,536,536,536,0,0,0,0,0,0,0,0,
536,536,536,536,536,536,536,536,0,0,0,0,0,0,0,0,
536,536,536,536,536,536,536,536,0,0,0,0,0,0,0,0
</chunk>
   <chunk x="-48" y="16" width="16" height="16">
0,536,536,536,536,536,536,536,536,536,536,536,536,536,536,536,
0,536,536,536,536,536,536,536,536,536,536,536,536,536,536,536,
0,536,536,536,536,536,536,536,536,536,536,536,536,536,536,536,
0,536,536,536,536,536,536,536,536,536,536,536,536,536,536,536,
0,0,0,0,0,0,0,0,0,0,0,0,0,0,0,0,
0,0,0,0,0,0,0,0,0,0,0,0,0,0,0,0,
0,0,0,0,0,0,0,0,0,0,0,0,0,0,0,0,
0,0,0,0,0,0,0,0,0,0,0,0,0,0,0,0,
0,0,0,0,0,0,0,0,0,0,0,0,0,0,0,0,
0,0,0,0,0,0,0,0,0,0,0,0,0,0,0,0,
0,0,0,0,0,0,0,0,0,0,0,0,0,0,0,0,
0,0,0,0,0,0,0,0,0,0,0,0,0,0,0,0,
0,0,0,0,0,0,0,0,0,0,0,0,0,0,0,0,
0,0,0,0,0,0,0,0,0,0,0,0,0,0,0,0,
0,0,0,0,0,0,0,0,0,0,0,0,0,0,0,0,
0,0,0,0,0,0,0,0,0,0,0,0,0,0,0,0
</chunk>
   <chunk x="-32" y="16" width="16" height="16">
536,536,536,536,536,536,536,536,536,536,536,536,536,536,536,536,
536,536,536,536,536,536,536,536,536,536,536,536,536,536,536,536,
536,536,536,536,536,536,536,536,536,536,536,536,536,536,536,536,
536,536,536,536,536,536,536,536,536,536,536,536,536,536,536,536,
0,0,0,0,0,0,0,0,0,0,0,0,0,0,0,0,
0,0,0,0,0,0,0,0,0,0,0,0,0,0,0,0,
0,0,0,0,0,0,0,0,0,0,0,0,0,0,0,0,
0,0,0,0,0,0,0,0,0,0,0,0,0,0,0,0,
0,0,0,0,0,0,0,0,0,0,0,0,0,0,0,0,
0,0,0,0,0,0,0,0,0,0,0,0,0,0,0,0,
0,0,0,0,0,0,0,0,0,0,0,0,0,0,0,0,
0,0,0,0,0,0,0,0,0,0,0,0,0,0,0,0,
0,0,0,0,0,0,0,0,0,0,0,0,0,0,0,0,
0,0,0,0,0,0,0,0,0,0,0,0,0,0,0,0,
0,0,0,0,0,0,0,0,0,0,0,0,0,0,0,0,
0,0,0,0,0,0,0,0,0,0,0,0,0,0,0,0
</chunk>
   <chunk x="-16" y="16" width="16" height="16">
536,536,536,536,536,536,536,536,536,536,536,536,536,536,536,536,
536,536,536,536,536,536,536,536,536,536,536,536,536,536,536,536,
536,536,536,536,536,536,536,536,536,536,536,536,536,536,536,536,
536,536,536,536,536,536,536,536,536,536,536,536,536,536,536,536,
0,0,0,0,0,0,0,0,0,0,0,0,0,0,0,0,
0,0,0,0,0,0,0,0,0,0,0,0,0,0,0,0,
0,0,0,0,0,0,0,0,0,0,0,0,0,0,0,0,
0,0,0,0,0,0,0,0,0,0,0,0,0,0,0,0,
0,0,0,0,0,0,0,0,0,0,0,0,0,0,0,0,
0,0,0,0,0,0,0,0,0,0,0,0,0,0,0,0,
0,0,0,0,0,0,0,0,0,0,0,0,0,0,0,0,
0,0,0,0,0,0,0,0,0,0,0,0,0,0,0,0,
0,0,0,0,0,0,0,0,0,0,0,0,0,0,0,0,
0,0,0,0,0,0,0,0,0,0,0,0,0,0,0,0,
0,0,0,0,0,0,0,0,0,0,0,0,0,0,0,0,
0,0,0,0,0,0,0,0,0,0,0,0,0,0,0,0
</chunk>
   <chunk x="0" y="16" width="16" height="16">
536,536,536,536,536,536,536,536,536,536,536,536,536,536,536,536,
536,536,536,536,536,536,536,536,536,536,536,536,536,536,536,536,
536,536,536,536,536,536,536,536,536,536,536,536,536,536,536,536,
536,536,536,536,536,536,536,536,536,536,536,536,536,536,536,536,
0,0,0,0,0,0,0,0,0,0,0,0,0,0,0,0,
0,0,0,0,0,0,0,0,0,0,0,0,0,0,0,0,
0,0,0,0,0,0,0,0,0,0,0,0,0,0,0,0,
0,0,0,0,0,0,0,0,0,0,0,0,0,0,0,0,
0,0,0,0,0,0,0,0,0,0,0,0,0,0,0,0,
0,0,0,0,0,0,0,0,0,0,0,0,0,0,0,0,
0,0,0,0,0,0,0,0,0,0,0,0,0,0,0,0,
0,0,0,0,0,0,0,0,0,0,0,0,0,0,0,0,
0,0,0,0,0,0,0,0,0,0,0,0,0,0,0,0,
0,0,0,0,0,0,0,0,0,0,0,0,0,0,0,0,
0,0,0,0,0,0,0,0,0,0,0,0,0,0,0,0,
0,0,0,0,0,0,0,0,0,0,0,0,0,0,0,0
</chunk>
   <chunk x="16" y="16" width="16" height="16">
536,536,536,536,536,536,536,536,536,536,536,536,536,536,536,536,
536,536,536,536,536,536,536,536,536,536,536,536,536,536,536,536,
536,536,536,536,536,536,536,536,536,536,536,536,536,536,536,536,
536,536,536,536,536,536,536,536,536,536,536,536,536,536,536,536,
0,0,0,0,0,0,0,0,0,0,0,0,0,0,0,0,
0,0,0,0,0,0,0,0,0,0,0,0,0,0,0,0,
0,0,0,0,0,0,0,0,0,0,0,0,0,0,0,0,
0,0,0,0,0,0,0,0,0,0,0,0,0,0,0,0,
0,0,0,0,0,0,0,0,0,0,0,0,0,0,0,0,
0,0,0,0,0,0,0,0,0,0,0,0,0,0,0,0,
0,0,0,0,0,0,0,0,0,0,0,0,0,0,0,0,
0,0,0,0,0,0,0,0,0,0,0,0,0,0,0,0,
0,0,0,0,0,0,0,0,0,0,0,0,0,0,0,0,
0,0,0,0,0,0,0,0,0,0,0,0,0,0,0,0,
0,0,0,0,0,0,0,0,0,0,0,0,0,0,0,0,
0,0,0,0,0,0,0,0,0,0,0,0,0,0,0,0
</chunk>
   <chunk x="32" y="16" width="16" height="16">
536,536,536,536,536,536,536,536,0,0,0,0,0,0,0,0,
536,536,536,536,536,536,536,536,0,0,0,0,0,0,0,0,
536,536,536,536,536,536,536,536,0,0,0,0,0,0,0,0,
536,536,536,536,536,536,536,536,0,0,0,0,0,0,0,0,
0,0,0,0,0,0,0,0,0,0,0,0,0,0,0,0,
0,0,0,0,0,0,0,0,0,0,0,0,0,0,0,0,
0,0,0,0,0,0,0,0,0,0,0,0,0,0,0,0,
0,0,0,0,0,0,0,0,0,0,0,0,0,0,0,0,
0,0,0,0,0,0,0,0,0,0,0,0,0,0,0,0,
0,0,0,0,0,0,0,0,0,0,0,0,0,0,0,0,
0,0,0,0,0,0,0,0,0,0,0,0,0,0,0,0,
0,0,0,0,0,0,0,0,0,0,0,0,0,0,0,0,
0,0,0,0,0,0,0,0,0,0,0,0,0,0,0,0,
0,0,0,0,0,0,0,0,0,0,0,0,0,0,0,0,
0,0,0,0,0,0,0,0,0,0,0,0,0,0,0,0,
0,0,0,0,0,0,0,0,0,0,0,0,0,0,0,0
</chunk>
  </data>
 </layer>
 <objectgroup id="4" name="SceneTransition">
  <object id="33" x="320" y="-384" width="16" height="80">
   <properties>
    <property name="scene" value="Gardens"/>
   </properties>
  </object>
 </objectgroup>
 <objectgroup id="3" name="Node">
  <object id="5" name="player" x="-176" y="16">
   <point/>
  </object>
  <object id="16" x="-272" y="-464" width="528" height="512"/>
 </objectgroup>
 <objectgroup id="2" name="Collision">
  <properties>
   <property name="collision" type="bool" value="true"/>
  </properties>
  <object id="1" x="-272" y="32" width="432" height="16"/>
  <object id="2" x="-272" y="-464" width="432" height="16"/>
  <object id="3" x="144" y="-304" width="16" height="336"/>
  <object id="4" x="-272" y="-448" width="16" height="480"/>
  <object id="17" x="-224" y="-32" width="96" height="8">
   <properties>
    <property name="one_way" type="bool" value="true"/>
   </properties>
  </object>
  <object id="18" x="-80" y="-64" width="128" height="8">
   <properties>
    <property name="one_way" type="bool" value="true"/>
   </properties>
  </object>
  <object id="19" x="-224" y="-128" width="112" height="8">
   <properties>
    <property name="one_way" type="bool" value="true"/>
   </properties>
  </object>
  <object id="20" x="-160" y="-192" width="96" height="8">
   <properties>
    <property name="one_way" type="bool" value="true"/>
   </properties>
  </object>
  <object id="21" x="-96" y="-256" width="112" height="8">
   <properties>
    <property name="one_way" type="bool" value="true"/>
   </properties>
  </object>
  <object id="22" x="64" y="-288" width="80" height="8">
   <properties>
    <property name="one_way" type="bool" value="true"/>
   </properties>
  </object>
  <object id="23" x="144" y="-448" width="16" height="64"/>
  <object id="24" x="160" y="-400" width="304" height="16"/>
  <object id="25" x="160" y="-304" width="304" height="16"/>
 </objectgroup>
</map>
